!!!!SEGMENT: pl-cz--iii-554--001-002_raszek-waclaw--missa-ex-c-gloria.krn
!!!cenid: 17xx:1023
!!!COM: Raszek, Wacław
!!!COM-rismID: pe30020314
!!!CDT: <1848->1848
!!!CNT:
!!!OPR: Missa ex C
!!!OTL: Gloria
!!!OMV: 002
!!!PDT: 1780
!!!AGN: Sacred; Mass
!!!SMS-siglum: PL-CZ
!!!SMS-shelfmark: III-554
!!!SMS-shelfwork: 001-002 M
!!!SMS-variant:
!!!SMS-altvar:
!!!NIFC-rismSourceID: 300001043
!!!NIFC-rismChildID: 300001043
!!!NIFC-islandoraID: pl-cz:38848
!!!URL-pdf-islandora: https://repozytorium.nifc.pl/islandora/object/pl-cz%3A38848/datastream/PDF/view
!!!URL-scan: https://polish.musicsources.pl/pl/lokalizacje/galeria/rekopisy/6944/1 @EN{Scan on Polish Music Sources Website} @PL{Skany w portalu Dziedzictwo Muzyki Polskiej w otwartym dostępie}
!!!IIIF:
!!!ONB-nifc: UWAGA: części Mszy: Kyrie, Gloria, Laudamus, Qui tollis, Quoniam, Cum sancto spiritu, Credo, Et incarnatus, Et resurrexit, Sanctus, Benedictus, Agnus Dei, Dona nobis
!!!AIN: 1 alto 1 bass 1 cello 2 oboe 1 soprn 1 tenor 2 tromp 1 viola 2 violn
!!!key: C
**kern	**dynam	**kern	**dynam	**kern	**dynam	**kern	**dynam	**kern	**text	**dynam	**kern	**text	**dynam	**kern	**text	**dynam	**kern	**text	**dynam	**kern	**dynam	**kern	**dynam	**kern	**dynam	**kern	**dynam
*part12	*part12	*part11	*part11	*part10	*part10	*part9	*part9	*part8	*part8	*part8	*part7	*part7	*part7	*part6	*part6	*part6	*part5	*part5	*part5	*part4	*part4	*part3	*part3	*part2	*part2	*part1	*part1
*staff12	*	*staff11	*	*staff10	*	*staff9	*	*staff8	*staff8	*	*staff7	*staff7	*	*staff6	*staff6	*	*staff5	*staff5	*	*staff4	*	*staff3	*	*staff2	*	*staff1	*
*IGcont	*	*IGacmp	*	*IGacmp	*	*IGacmp	*	*IGcoro	*	*	*IGcoro	*	*	*IGcoro	*	*	*IGcoro	*	*	*IGacmp	*	*IGacmp	*	*IGacmp	*	*IGacmp	*
*ICstr	*	*ICstr	*	*ICstr	*	*ICstr	*	*ICvox	*	*	*ICvox	*	*	*ICvox	*	*	*ICvox	*	*	*ICbras	*	*ICbras	*	*ICww	*	*ICww	*
*Icello	*	*Iviola	*	*Ivioln	*	*Ivioln	*	*Ibass	*	*	*Itenor	*	*	*Ialto	*	*	*Isoprn	*	*	*Itromp	*	*Itromp	*	*Ioboe	*	*Ioboe	*
*I"Violone.	*	*I"Viola di Alto. oblig.	*	*I"Violino 2do.	*	*I"Violino 1mo.	*	*I"Basſo.	*	*	*I"Tenore.	*	*	*I"Alto.	*	*	*I"Canto.	*	*	*I"Clarino 2do. Ex C.	*	*I"Clarino 1mo. Ex C.	*	*I"Oboe Secundo	*	*I"Oboe Primo.	*
*mI"Violone	*	*mI"Viola	*	*mI"Violino II	*	*mI"Violino I	*	*mI"Basso	*	*	*mI"Tenore	*	*	*mI"Alto	*	*	*mI"Canto	*	*	*mI"Clarino II	*	*mI"Clarino I	*	*mI"Oboe II	*	*mI"Oboe I	*
*I'vlne	*	*I'a-vla	*	*I'vl 2	*	*I'vl 1	*	*I'B	*	*	*I'T	*	*	*I'A	*	*	*I'S	*	*	*I'clar 2	*	*I'clar 1	*	*I'ob 2	*	*I'ob 1	*
*	*	*mI'vla	*	*mI'vl II	*	*mI'vl I	*	*	*	*	*	*	*	*	*	*	*	*	*	*mI'clar II	*	*mI'clar I	*	*mI' ob II	*	*mI'ob I	*
*clefF4	*	*clefC3	*	*clefG2	*	*clefG2	*	*clefF4	*	*	*clefC4	*	*	*clefC3	*	*	*clefC1	*	*	*clefG2	*	*clefG2	*	*clefG2	*	*clefG2	*
*	*	*	*	*	*	*	*	*	*	*	*mclefGv2	*	*	*mclefG2	*	*	*mclefG2	*	*	*	*	*	*	*	*	*	*
*k[]	*	*k[]	*	*k[]	*	*k[]	*	*k[]	*	*	*k[]	*	*	*k[]	*	*	*k[]	*	*	*k[]	*	*k[]	*	*k[]	*	*k[]	*
*C:	*	*C:	*	*C:	*	*C:	*	*C:	*	*	*C:	*	*	*C:	*	*	*C:	*	*	*C:	*	*C:	*	*C:	*	*C:	*
*M2/2	*	*M2/2	*	*M2/2	*	*M2/2	*	*M2/2	*	*	*M2/2	*	*	*M2/2	*	*	*M2/2	*	*	*M2/2	*	*M2/2	*	*M2/2	*	*M2/2	*
*met(C.)	*	*met(C.)	*	*met(C.)	*	*met(C.)	*	*met(C.)	*	*	*met(C.)	*	*	*met(C.)	*	*	*met(C.)	*	*	*met(C.)	*	*met(C.)	*	*met(C.)	*	*met(C.)	*
*all\right	*	*all\right	*	*all\right	*	*all\right	*	*all\right	*	*	*all\right	*	*	*all\right	*	*	*all\right	*	*	*all\right	*	*all\right	*	*all\right	*	*all\right	*
*2\right	*	*2\right	*	*2\right	*	*2\right	*	*2\right	*	*	*2\right	*	*	*2\right	*	*	*2\right	*	*	*2\right	*	*2\right	*	*2\right	*	*2\right	*
=1	=1	=1	=1	=1	=1	=1	=1	=1	=1	=1	=1	=1	=1	=1	=1	=1	=1	=1	=1	=1	=1	=1	=1	=1	=1	=1	=1
!!!OMD:
!!!OMD-mod: Allegro assai
!	!	!	!	!	!	!LO:TX:a:t=allo. aſsai.:mod=	!	!	!	!	!	!	!	!	!	!	!	!	!	!	!	!	!	!	!	!	!
!LO:TX:a:t=Allo. aſsai.:mod=	!LO:MO:null:mod=f	!LO:TX:a:t=Aſsai.:rj:mod=	!LO:DY:a:t=for.	!LO:TX:a:t=Allo. molto:mod=	!LO:MO:null:mod=f	!	!LO:DY:a:t=for&colon;	!LO:TX:a:t=Allo.:mod=	!	!	!LO:TX:a:t=Allo.:mod=	!	!	!LO:TX:a:t=Allo. molto.:mod=	!	!	!LO:TX:a:t=allo. molto.:mod=	!	!	!LO:TX:a:t=Allo. molto.:mod=	!	!LO:TX:a:t=Allo. molto:mod=	!	!LO:TX:a:t=allo.:mod=	!	!LO:TX:a:t=Allo. aſsai.:mod=	!
4C/	.	4c\	f	4G/ 4e	.	4e/ 4cc	f	2.c\	Glo-	.	2.e\	Glo-	.	2.g\	Glo-	.	2.cc\	Glo-	.	4e/	.	4cc\	.	4e/	.	4cc\	.
4c\	.	4cc\	.	4G/ 4e	.	16cc\LL	.	.	.	.	.	.	.	.	.	.	.	.	.	8e/L	.	8cc\L	.	4e/	.	8cc\L	.
.	.	.	.	.	.	16dd\	.	.	.	.	.	.	.	.	.	.	.	.	.	.	.	.	.	.	.	.	.
.	.	.	.	.	.	16ee\	.	.	.	.	.	.	.	.	.	.	.	.	.	8e/J	.	8cc\J	.	.	.	8dd\J	.
.	.	.	.	.	.	16dd\JJ	.	.	.	.	.	.	.	.	.	.	.	.	.	.	.	.	.	.	.	.	.
!	!	!	!	!	!LO:DY:a:t=f&colon;	!	!	!	!	!	!	!	!	!	!	!	!	!	!	!	!	!	!	!	!	!	!
!	!	!	!	!	!LO:MO:mod=.	!	!	!	!	!	!	!	!	!	!	!	!	!	!	!	!	!	!	!	!	!	!
4G\	.	4g\	.	4G/ 4e	f	4cc\	.	.	.	.	.	.	.	.	.	.	.	.	.	4e/	.	4cc\	.	4e/	.	4cc\	.
4E\	.	4e\	.	4G/ 4e	.	4r	.	4C/	-ri-	.	4e\	-ri-	.	4g\	-ri-	.	4cc\	-ri-	.	4e/	.	4cc\	.	4e/	.	4cc\	.
=2	=2	=2	=2	=2	=2	=2	=2	=2	=2	=2	=2	=2	=2	=2	=2	=2	=2	=2	=2	=2	=2	=2	=2	=2	=2	=2	=2
!	!LO:DY:a:t=p&colon;	!	!LO:DY:a:t=pia&colon;	!	!LO:DY:a:t=pia&colon;	!	!LO:DY:a:t=pia&colon;:rj	!	!	!	!	!	!	!	!	!	!	!	!	!	!	!	!	!	!	!	!
2C/	p	2c\	p	2e/	p	4r	p	4C/	-a	.	4e\	-a	.	4g\	-a	.	4cc\	-a	.	4e/	.	4cc\	.	4e/	.	4cc\	.
.	.	.	.	.	.	4gg\	.	4r	.	.	4r	.	.	4r	.	.	4r	.	.	4r	.	4r	.	4r	.	4r	.
2E\	.	2c\	.	2g/	.	4ee\	.	2r	.	.	2r	.	.	2r	.	.	2r	.	.	2r	.	2r	.	2r	.	2r	.
.	.	.	.	.	.	4b-X\	.	.	.	.	.	.	.	.	.	.	.	.	.	.	.	.	.	.	.	.	.
=3	=3	=3	=3	=3	=3	=3	=3	=3	=3	=3	=3	=3	=3	=3	=3	=3	=3	=3	=3	=3	=3	=3	=3	=3	=3	=3	=3
2F\	.	2c\	.	2c/	.	4a/	.	1r	.	.	1r	.	.	1r	.	.	1r	.	.	1r	.	1r	.	1r	.	1r	.
.	.	.	.	.	.	4ff\	.	.	.	.	.	.	.	.	.	.	.	.	.	.	.	.	.	.	.	.	.
2G\	.	2f\	.	4f/	.	4dd\	.	.	.	.	.	.	.	.	.	.	.	.	.	.	.	.	.	.	.	.	.
.	.	.	.	4d/	.	4bn\	.	.	.	.	.	.	.	.	.	.	.	.	.	.	.	.	.	.	.	.	.
=4	=4	=4	=4	=4	=4	=4	=4	=4	=4	=4	=4	=4	=4	=4	=4	=4	=4	=4	=4	=4	=4	=4	=4	=4	=4	=4	=4
!	!	!	!	!	!	!	!	!	!	!	!	!LO:MO:mod=*	!	!	!	!	!	!	!	!	!	!	!	!	!	!	!
*	*	*	*	*	*	*	*	*	*	*	*	*ij	*	*	*	*	*	*	*	*	*	*	*	*	*	*	*
!	!LO:DY:a:t=for&colon;	!	!LO:DY:a:t=for&colon;	!	!LO:DY:a:t=for.	!	!LO:DY:a:t=for&colon;	!	!	!	!	!	!	!	!	!	!	!	!	!	!	!	!	!	!	!	!
4C/	f	4e\	f	4G/ 4e	f	4e/ 4cc	f	2.c\	Glo-	.	2.e\	Glo-	.	2.g\	Glo-	.	2.cc\	Glo-	.	4e/	.	4cc\	.	4r	.	4cc\	.
4c\	.	4cc\	.	4G/ 4e	.	16cc\LL	.	.	.	.	.	.	.	.	.	.	.	.	.	8e/L	.	8cc\L	.	4e/	.	8cc\L	.
.	.	.	.	.	.	16dd\	.	.	.	.	.	.	.	.	.	.	.	.	.	.	.	.	.	.	.	.	.
.	.	.	.	.	.	16ee\	.	.	.	.	.	.	.	.	.	.	.	.	.	8e/J	.	8cc\J	.	.	.	8dd\J	.
.	.	.	.	.	.	16dd\JJ	.	.	.	.	.	.	.	.	.	.	.	.	.	.	.	.	.	.	.	.	.
4G\	.	4g\	.	4G/ 4e	.	4cc\	.	.	.	.	.	.	.	.	.	.	.	.	.	4e/	.	4cc\	.	4e/	.	4cc\	.
4E\	.	4e\	.	4G/ 4e	.	4r	.	4C/	-ri-	.	4e\	-ri-	.	4g\	-ri-	.	4cc\	-ri-	.	4e/	.	4cc\	.	4e/	.	4cc\	.
=5	=5	=5	=5	=5	=5	=5	=5	=5	=5	=5	=5	=5	=5	=5	=5	=5	=5	=5	=5	=5	=5	=5	=5	=5	=5	=5	=5
!	!LO:DY:a:t=p&colon;	!	!LO:DY:a:t=p&colon;	!	!LO:DY:a:t=pia&colon;	!	!	!	!	!	!	!	!	!	!	!	!	!	!	!	!	!	!	!	!	!	!
2C/	p	2c\	p	2e/	p	4r	.	4C/	-a	.	4e\	-a	.	4g\	-a	.	4cc\	-a	.	4e/	.	4cc\	.	4e/	.	4cc\	.
*	*	*	*	*	*	*	*	*	*	*	*	*Xij	*	*	*	*	*	*	*	*	*	*	*	*	*	*	*
!	!	!	!	!	!	!	!LO:DY:a:t=pia&colon;:rj	!	!	!	!	!	!	!	!	!	!	!	!	!	!	!	!	!	!	!	!
.	.	.	.	.	.	4gg\	p	4r	.	.	4r	.	.	4r	.	.	4r	.	.	4r	.	4r	.	4r	.	4r	.
2E\	.	2c\	.	2g/	.	4ee\	.	2r	.	.	2r	.	.	2r	.	.	2r	.	.	2r	.	2r	.	2r	.	2r	.
.	.	.	.	.	.	4b-X\	.	.	.	.	.	.	.	.	.	.	.	.	.	.	.	.	.	.	.	.	.
=6	=6	=6	=6	=6	=6	=6	=6	=6	=6	=6	=6	=6	=6	=6	=6	=6	=6	=6	=6	=6	=6	=6	=6	=6	=6	=6	=6
2F\	.	2c\	.	4c/	.	4a/	.	1r	.	.	1r	.	.	1r	.	.	1r	.	.	1r	.	1r	.	4r	.	4r	.
!	!	!	!	!	!	!	!	!	!	!	!	!	!	!	!	!	!	!	!	!	!	!	!	!	!LO:DY:a:t=p&colon;:rj	!	!LO:DY:a:t=p&colon;:rj
.	.	.	.	4a/	.	4ff\	.	.	.	.	.	.	.	.	.	.	.	.	.	.	.	.	.	4a/	p	4ff\	p
!	!LO:MO:null:mod=f	!	!LO:DY:a:t=for&colon;	!	!	!	!	!	!	!	!	!	!	!	!	!	!	!	!	!	!	!	!	!	!	!	!
2G\	.	2f\	f	4f/	.	4dd\	.	.	.	.	.	.	.	.	.	.	.	.	.	.	.	.	.	4f/	.	4dd\	.
.	.	.	.	4d/	.	4bn\	.	.	.	.	.	.	.	.	.	.	.	.	.	.	.	.	.	4d/	.	4b\	.
=7	=7	=7	=7	=7	=7	=7	=7	=7	=7	=7	=7	=7	=7	=7	=7	=7	=7	=7	=7	=7	=7	=7	=7	=7	=7	=7	=7
!LO:TX:t=P:problem=mixed beam	!LO:DY:a:rj	!	!LO:MO:null:mod=f	!	!LO:DY:a:t=for&colon;	!	!LO:DY:a:t=for&colon;:rj	!	!	!	!	!	!	!	!	!	!	!	!	!	!	!	!	!	!LO:DY:a:t=for&colon;	!	!LO:DY:a:t=for&colon;:rj
8E\L	f	8e\L	.	16g/LL	f	4.cc\	f	2c\	in	.	2e\	in	.	2g\	in	.	2cc\	in	.	4e/	.	4cc\	.	4e/	f	4.cc\	f
.	.	.	.	16g/	.	.	.	.	.	.	.	.	.	.	.	.	.	.	.	.	.	.	.	.	.	.	.
8GG/	.	8G\	.	16g/	.	.	.	.	.	.	.	.	.	.	.	.	.	.	.	.	.	.	.	.	.	.	.
.	.	.	.	16g/JJ	.	.	.	.	.	.	.	.	.	.	.	.	.	.	.	.	.	.	.	.	.	.	.
8C/	.	8e\	.	16g/LL	.	.	.	.	.	.	.	.	.	.	.	.	.	.	.	8e/L	.	8cc\L	.	4g/	.	.	.
.	.	.	.	16g/	.	.	.	.	.	.	.	.	.	.	.	.	.	.	.	.	.	.	.	.	.	.	.
8GG/J	.	8G\J	.	16g/	.	16dd\LL	.	.	.	.	.	.	.	.	.	.	.	.	.	8e/J	.	8cc\J	.	.	.	8ee\	.
.	.	.	.	16g/JJ	.	16ee\JJ	.	.	.	.	.	.	.	.	.	.	.	.	.	.	.	.	.	.	.	.	.
*	*	*tremolo	*	*	*	*	*	*	*	*	*	*	*	*	*	*	*	*	*	*	*	*	*	*	*	*	*
*	*	*	*	*tremolo	*	*	*	*	*	*	*	*	*	*	*	*	*	*	*	*	*	*	*	*	*	*	*
8BB/L	.	8d\L	.	16g/LL	.	4dd\	.	2B\	ex-	.	2d\	ex-	.	2g\	ex-	.	2dd\	ex-	.	4g/	.	4dd\	.	4g/	.	4dd\	.
.	.	.	.	16g/	.	.	.	.	.	.	.	.	.	.	.	.	.	.	.	.	.	.	.	.	.	.	.
8GG/	.	8d\	.	16g/	.	.	.	.	.	.	.	.	.	.	.	.	.	.	.	.	.	.	.	.	.	.	.
.	.	.	.	16g/	.	.	.	.	.	.	.	.	.	.	.	.	.	.	.	.	.	.	.	.	.	.	.
8BB/	.	8d\	.	16g/	.	4r	.	.	.	.	.	.	.	.	.	.	.	.	.	4g/	.	4dd\	.	4g/	.	4dd\	.
.	.	.	.	16g/	.	.	.	.	.	.	.	.	.	.	.	.	.	.	.	.	.	.	.	.	.	.	.
8GG/J	.	8d\J	.	16g/	.	.	.	.	.	.	.	.	.	.	.	.	.	.	.	.	.	.	.	.	.	.	.
.	.	.	.	16g/JJ	.	.	.	.	.	.	.	.	.	.	.	.	.	.	.	.	.	.	.	.	.	.	.
=8	=8	=8	=8	=8	=8	=8	=8	=8	=8	=8	=8	=8	=8	=8	=8	=8	=8	=8	=8	=8	=8	=8	=8	=8	=8	=8	=8
8BB/L	.	8d\L	.	16g/LL	.	4.dd\	.	2B\	-cel-	.	2d\	-cel-	.	2g\	-cel-	.	2dd\	-cel-	.	4g/	.	4dd\	.	1g	.	4.dd\	.
.	.	.	.	16g/	.	.	.	.	.	.	.	.	.	.	.	.	.	.	.	.	.	.	.	.	.	.	.
8GG/	.	8d\	.	16g/	.	.	.	.	.	.	.	.	.	.	.	.	.	.	.	.	.	.	.	.	.	.	.
.	.	.	.	16g/	.	.	.	.	.	.	.	.	.	.	.	.	.	.	.	.	.	.	.	.	.	.	.
8BB/	.	8d\	.	16g/	.	.	.	.	.	.	.	.	.	.	.	.	.	.	.	8g/L	.	8dd\L	.	.	.	.	.
.	.	.	.	16g/	.	.	.	.	.	.	.	.	.	.	.	.	.	.	.	.	.	.	.	.	.	.	.
*custos:CC	*	*	*	*	*	*	*	*	*	*	*	*	*	*	*	*	*	*	*	*	*	*	*	*	*	*	*
8GG/J	.	8d\J	.	16g/	.	16ee\LL	.	.	.	.	.	.	.	.	.	.	.	.	.	8g/J	.	8dd\J	.	.	.	8ff\	.
.	.	.	.	16g/JJ	.	16ff\JJ	.	.	.	.	.	.	.	.	.	.	.	.	.	.	.	.	.	.	.	.	.
!LO:LB:g=original	!	!	!	!	!	!	!	!	!	!	!	!	!	!	!	!	!	!	!	!	!	!	!	!	!	!	!
8C/L	.	8c\L	.	16g/LL	.	4ee\	.	2c\	-ſis	.	2c\	-ſis	.	2g\	-sis	.	2ee\	-sis	.	4cc\	.	4ee\	.	.	.	4ee\	.
.	.	.	.	16g/	.	.	.	.	.	.	.	.	.	.	.	.	.	.	.	.	.	.	.	.	.	.	.
8GG/	.	8c\	.	16g/	.	.	.	.	.	.	.	.	.	.	.	.	.	.	.	.	.	.	.	.	.	.	.
.	.	.	.	16g/	.	.	.	.	.	.	.	.	.	.	.	.	.	.	.	.	.	.	.	.	.	.	.
8C/	.	8c\	.	16g/	.	4r	.	.	.	.	.	.	.	.	.	.	.	.	.	4cc\	.	4ee\	.	.	.	4ee\	.
.	.	.	.	16g/	.	.	.	.	.	.	.	.	.	.	.	.	.	.	.	.	.	.	.	.	.	.	.
8GG/J	.	8c\J	.	16g/	.	.	.	.	.	.	.	.	.	.	.	.	.	.	.	.	.	.	.	.	.	.	.
.	.	.	.	16g/JJ	.	.	.	.	.	.	.	.	.	.	.	.	.	.	.	.	.	.	.	.	.	.	.
*	*	*	*	*	*	*	*	*	*	*	*	*	*	*	*	*	*	*	*	*	*	*	*	*	*	*	*
=9	=9	=9	=9	=9	=9	=9	=9	=9	=9	=9	=9	=9	=9	=9	=9	=9	=9	=9	=9	=9	=9	=9	=9	=9	=9	=9	=9
!	!	!	!	!	!	!	!	!	!LO:MO:mod=*	!	!	!LO:MO:mod=*	!	!	!	!	!	!	!	!	!	!	!	!	!	!	!
*	*	*	*	*Xtremolo	*	*	*	*	*ij	*	*	*ij	*	*	*	*	*	*	*	*	*	*	*	*	*	*	*
!	!	!	!	!LO:TX:t=P:problem=takty 9-10 zapisane repetycją	!	!	!	!	!	!	!	!	!	!	!	!	!	!	!	!	!	!	!	!	!	!	!
8E/L	.	8e\L	.	16g/LLyy	f	4.cc\	.	2C/	in	.	2e\	in	.	2g\	in	.	2cc\	in	.	2e/	.	2cc\	.	4g/	.	4.cc\	.
.	.	.	.	16g/yy	.	.	.	.	.	.	.	.	.	.	.	.	.	.	.	.	.	.	.	.	.	.	.
8GG/	.	8e\	.	16g/yy	.	.	.	.	.	.	.	.	.	.	.	.	.	.	.	.	.	.	.	.	.	.	.
.	.	.	.	16g/JJyy	.	.	.	.	.	.	.	.	.	.	.	.	.	.	.	.	.	.	.	.	.	.	.
8C/	.	8e\	.	16g/LLyy	.	.	.	.	.	.	.	.	.	.	.	.	.	.	.	.	.	.	.	4g/	.	.	.
.	.	.	.	16g/yy	.	.	.	.	.	.	.	.	.	.	.	.	.	.	.	.	.	.	.	.	.	.	.
8GG/J	.	8e\J	.	16g/yy	.	16dd\LL	.	.	.	.	.	.	.	.	.	.	.	.	.	.	.	.	.	.	.	8ee\	.
.	.	.	.	16g/JJyy	.	16ee\JJ	.	.	.	.	.	.	.	.	.	.	.	.	.	.	.	.	.	.	.	.	.
*	*	*	*	*tremolo	*	*	*	*	*	*	*	*	*	*	*	*	*	*	*	*	*	*	*	*	*	*	*
8BB/L	.	8d\L	.	16g/yyLL	.	4dd\	.	2BB/	ex-	.	2d\	ex-	.	2g\	ex-	.	2dd\	ex-	.	2g/	.	2dd\	.	4g/	.	4dd\	.
.	.	.	.	16g/yy	.	.	.	.	.	.	.	.	.	.	.	.	.	.	.	.	.	.	.	.	.	.	.
8GG/	.	8d\	.	16g/yy	.	.	.	.	.	.	.	.	.	.	.	.	.	.	.	.	.	.	.	.	.	.	.
.	.	.	.	16g/yy	.	.	.	.	.	.	.	.	.	.	.	.	.	.	.	.	.	.	.	.	.	.	.
8BB/	.	8d\	.	16g/yy	.	4r	.	.	.	.	.	.	.	.	.	.	.	.	.	.	.	.	.	4g/	.	4dd\	.
.	.	.	.	16g/yy	.	.	.	.	.	.	.	.	.	.	.	.	.	.	.	.	.	.	.	.	.	.	.
8GG/J	.	8d\J	.	16g/yy	.	.	.	.	.	.	.	.	.	.	.	.	.	.	.	.	.	.	.	.	.	.	.
.	.	.	.	16g/yyJJ	.	.	.	.	.	.	.	.	.	.	.	.	.	.	.	.	.	.	.	.	.	.	.
=10	=10	=10	=10	=10	=10	=10	=10	=10	=10	=10	=10	=10	=10	=10	=10	=10	=10	=10	=10	=10	=10	=10	=10	=10	=10	=10	=10
!	!	!	!	!	!	!LO:LB:g=original	!	!	!	!	!	!	!	!	!	!	!	!	!	!	!	!	!	!	!	!	!
8BB/L	.	8d\L	.	16g/LLyy	.	4.dd\	.	2BB/	-cel-	.	2d\	-cel-	.	2g\	-cel-	.	2dd\	-cel-	.	2g/	.	2dd\	.	2g/	.	4.dd\	.
.	.	.	.	16g/yy	.	.	.	.	.	.	.	.	.	.	.	.	.	.	.	.	.	.	.	.	.	.	.
8GG/	.	8d\	.	16g/yy	.	.	.	.	.	.	.	.	.	.	.	.	.	.	.	.	.	.	.	.	.	.	.
.	.	.	.	16g/yy	.	.	.	.	.	.	.	.	.	.	.	.	.	.	.	.	.	.	.	.	.	.	.
8BB/	.	8d\	.	16g/yy	.	.	.	.	.	.	.	.	.	.	.	.	.	.	.	.	.	.	.	.	.	.	.
.	.	.	.	16g/yy	.	.	.	.	.	.	.	.	.	.	.	.	.	.	.	.	.	.	.	.	.	.	.
8GG/J	.	8d\J	.	16g/yy	.	16ee\LL	.	.	.	.	.	.	.	.	.	.	.	.	.	.	.	.	.	.	.	8ff\	.
.	.	.	.	16g/JJyy	.	16ff\JJ	.	.	.	.	.	.	.	.	.	.	.	.	.	.	.	.	.	.	.	.	.
!	!	!	!	!	!	!	!	!	!	!	!	!	!	!	!	!	!	!	!	!	!	!	!	!	!	!LO:LB:g=original	!
8C/L	.	8c\L	.	16g/yyLL	.	4ee\	.	2C/	-ſis	.	2c\	-ſis	.	2g\	-sis	.	2ee\	-sis	.	2cc\	.	2ee\	.	2g/	.	4ee\	.
*	*	*	*	*	*	*	*	*	*Xij	*	*	*Xij	*	*	*	*	*	*	*	*	*	*	*	*	*	*	*
.	.	.	.	16g/yy	.	.	.	.	.	.	.	.	.	.	.	.	.	.	.	.	.	.	.	.	.	.	.
8GG/	.	8c\	.	16g/yy	.	.	.	.	.	.	.	.	.	.	.	.	.	.	.	.	.	.	.	.	.	.	.
.	.	.	.	16g/yy	.	.	.	.	.	.	.	.	.	.	.	.	.	.	.	.	.	.	.	.	.	.	.
8C/	.	8c\	.	16g/yy	.	4r	.	.	.	.	.	.	.	.	.	.	.	.	.	.	.	.	.	.	.	4ee\	.
.	.	.	.	16g/yy	.	.	.	.	.	.	.	.	.	.	.	.	.	.	.	.	.	.	.	.	.	.	.
8GG/J	.	8c\J	.	16g/yy	.	.	.	.	.	.	.	.	.	.	.	.	.	.	.	.	.	.	.	.	.	.	.
.	.	.	.	16g/yyJJ	.	.	.	.	.	.	.	.	.	.	.	.	.	.	.	.	.	.	.	.	.	.	.
*	*	*Xtremolo	*	*Xtremolo	*	*	*	*	*	*	*	*	*	*	*	*	*	*	*	*	*	*	*	*	*	*	*
=11	=11	=11	=11	=11	=11	=11	=11	=11	=11	=11	=11	=11	=11	=11	=11	=11	=11	=11	=11	=11	=11	=11	=11	=11	=11	=11	=11
!	!	!	!	!	!	!	!	!	!	!	!	!	!	!	!	!	!LO:LB:g=original	!	!	!	!	!LO:LB:g=original	!	!	!	!	!
4C/	.	4c\	.	8g/	.	8cc\	.	2c\	in	.	2c\	in	.	2g\	in	.	2ee\	in	.	4c/	.	4ee\	.	4cc\	.	4ee\	.
.	.	.	.	4ee\	.	4ccc\	.	.	.	.	.	.	.	.	.	.	.	.	.	.	.	.	.	.	.	.	.
4c\	.	4cc\	.	.	.	.	.	.	.	.	.	.	.	.	.	.	.	.	.	4r	.	4r	.	4ee\	.	4ccc\	.
.	.	.	.	4ee\	.	4ccc\	.	.	.	.	.	.	.	.	.	.	.	.	.	.	.	.	.	.	.	.	.
*	*	*	*	*	*	*	*	*	*	*	*custos:c	*	*	*	*	*	*	*	*	*	*	*	*	*	*	*	*
!	!	!LO:LB:g=original	!	!	!	!	!	!	!	!	!	!	!	!	!	!	!	!	!	!	!	!	!	!	!	!	!
4A\	.	4a\	.	.	.	.	.	4A\	ex-	.	2c\	ex-	.	2a\	ex-	.	2ee\	ex-	.	2r	.	2r	.	4ee\	.	4ccc\	.
.	.	.	.	4ee\	.	4ccc\	.	.	.	.	.	.	.	.	.	.	.	.	.	.	.	.	.	.	.	.	.
4G\	.	4g\	.	.	.	.	.	4G\	.	.	.	.	.	.	.	.	.	.	.	.	.	.	.	4ee\	.	4ccc\	.
.	.	.	.	8ee\	.	[8ccc\	.	.	.	.	.	.	.	.	.	.	.	.	.	.	.	.	.	.	.	.	.
=12	=12	=12	=12	=12	=12	=12	=12	=12	=12	=12	=12	=12	=12	=12	=12	=12	=12	=12	=12	=12	=12	=12	=12	=12	=12	=12	=12
!	!	!	!	!	!	!	!	!LO:LB:g=original	!	!	!LO:LB:g=original	!	!	!	!	!	!	!	!	!LO:LB:g=original	!	!	!	!LO:LB:g=original	!	!	!
4F#X\	.	4f#X\	.	8d/ 8dd	.	8dd\ 8ccc]	.	2F#X\	-cel-	.	2c\	-cel-	.	2a\	-cel-	.	2dd\	-cel-	.	4dd\	.	4dd\	.	2dd\	.	2ccc\	.
.	.	.	.	4d/ 4dd	.	4dd\ 4ccc	.	.	.	.	.	.	.	.	.	.	.	.	.	.	.	.	.	.	.	.	.
4D\	.	4d\	.	.	.	.	.	.	.	.	.	.	.	.	.	.	.	.	.	8dd\L	.	8.dd\L	.	.	.	.	.
.	.	.	.	4d/ 4dd	.	4dd\ 4ccc	.	.	.	.	.	.	.	.	.	.	.	.	.	8dd\J	.	.	.	.	.	.	.
.	.	.	.	.	.	.	.	.	.	.	.	.	.	.	.	.	.	.	.	.	.	16dd\Jk	.	.	.	.	.
4E\	.	4e\	.	.	.	.	.	2F#\	-ſis	.	2c\	-ſis	.	2a\	-sis	.	2dd\	-sis	.	4dd\	.	4dd\	.	2dd\	.	2ccc\	.
.	.	.	.	4d/ 4dd	.	4dd\ 4ccc	.	.	.	.	.	.	.	.	.	.	.	.	.	.	.	.	.	.	.	.	.
4F#\	.	4f#\	.	.	.	.	.	.	.	.	.	.	.	.	.	.	.	.	.	4r	.	4r	.	.	.	.	.
.	.	.	.	8d/ 8dd	.	8dd\ 8ccc	.	.	.	.	.	.	.	.	.	.	.	.	.	.	.	.	.	.	.	.	.
=13	=13	=13	=13	=13	=13	=13	=13	=13	=13	=13	=13	=13	=13	=13	=13	=13	=13	=13	=13	=13	=13	=13	=13	=13	=13	=13	=13
!	!	!	!	!LO:LB:g=original	!	!	!	!	!	!	!	!	!	!LO:LB:g=original	!	!	!	!	!	!	!	!	!	!	!	!	!
4G\	.	4g\	.	8dd\	.	8dd\ 8bb	.	1G	De-	.	1B	De-	.	1g	in	.	1dd	in	.	4g/	.	4dd\	.	1dd	.	1bb	.
.	.	.	.	4dd\ 4bb	.	4dd\ 4bb	.	.	.	.	.	.	.	.	.	.	.	.	.	.	.	.	.	.	.	.	.
4d\	.	4dd\	.	.	.	.	.	.	.	.	.	.	.	.	.	.	.	.	.	8.g/L	.	8dd\L	.	.	.	.	.
.	.	.	.	4dd\ 4bb	.	4dd\ 4bb	.	.	.	.	.	.	.	.	.	.	.	.	.	.	.	8dd\J	.	.	.	.	.
.	.	.	.	.	.	.	.	.	.	.	.	.	.	.	.	.	.	.	.	16g/Jk	.	.	.	.	.	.	.
4B\	.	4b\	.	.	.	.	.	.	.	.	.	.	.	.	.	.	.	.	.	4g/	.	4dd\	.	.	.	.	.
.	.	.	.	4dd\ 4bb	.	4dd\ 4bb	.	.	.	.	.	.	.	.	.	.	.	.	.	.	.	.	.	.	.	.	.
4G\	.	4g\	.	.	.	.	.	.	.	.	.	.	.	.	.	.	.	.	.	4r	.	4r	.	.	.	.	.
.	.	.	.	8dd\ 8bb	.	8dd\ 8bb	.	.	.	.	.	.	.	.	.	.	.	.	.	.	.	.	.	.	.	.	.
=14	=14	=14	=14	=14	=14	=14	=14	=14	=14	=14	=14	=14	=14	=14	=14	=14	=14	=14	=14	=14	=14	=14	=14	=14	=14	=14	=14
!LO:SIC:v:s=4FF#	!	!	!	!	!	!	!	!	!	!	!	!	!	!	!	!	!	!	!	!	!	!	!	!	!	!	!
4F\	.	4f#X\	.	8dd\ 8ccc	.	8dd\ 8ccc	.	1F#X	-o	.	1c	-o	.	1a	ex-	.	1dd	ex-	.	4dd\	.	4dd\	.	1dd	.	4ccc\	.
.	.	.	.	4dd\ 4ccc	.	4dd\ 4ccc	.	.	.	.	.	.	.	.	.	.	.	.	.	.	.	.	.	.	.	.	.
4A\	.	4a\	.	.	.	.	.	.	.	.	.	.	.	.	.	.	.	.	.	8.dd\L	.	8dd\L	.	.	.	8ccc\L	.
.	.	.	.	4dd\ 4ccc	.	4dd\ 4ccc	.	.	.	.	.	.	.	.	.	.	.	.	.	.	.	8dd\J	.	.	.	8ccc\J	.
.	.	.	.	.	.	.	.	.	.	.	.	.	.	.	.	.	.	.	.	16dd\Jk	.	.	.	.	.	.	.
!LO:SIC:v:s=4FF#	!	!	!	!	!	!	!	!	!	!	!	!	!	!	!	!	!	!	!	!	!	!	!	!	!	!	!
4F\	.	4f#\	.	.	.	.	.	.	.	.	.	.	.	.	.	.	.	.	.	4dd\	.	4dd\	.	.	.	4ccc\	.
.	.	.	.	4dd\ 4ccc	.	4dd\ 4ccc	.	.	.	.	.	.	.	.	.	.	.	.	.	.	.	.	.	.	.	.	.
4D\	.	4d\	.	.	.	.	.	.	.	.	.	.	.	.	.	.	.	.	.	4r	.	4r	.	.	.	4ccc\	.
.	.	.	.	8ccc\	.	8dd\ 8ccc	.	.	.	.	.	.	.	.	.	.	.	.	.	.	.	.	.	.	.	.	.
=15	=15	=15	=15	=15	=15	=15	=15	=15	=15	=15	=15	=15	=15	=15	=15	=15	=15	=15	=15	=15	=15	=15	=15	=15	=15	=15	=15
4G\	.	4g\	.	8bb\	.	4dd\ 4bb	.	2G\	in	.	2B\	in	.	2g\	-cel-	.	2dd\	-cel-	.	4g/	.	4dd\	.	4dd\	.	4bb\	.
.	.	.	.	4dd\	.	.	.	.	.	.	.	.	.	.	.	.	.	.	.	.	.	.	.	.	.	.	.
.	.	.	.	.	.	8qccc/	.	.	.	.	.	.	.	.	.	.	.	.	.	.	.	.	.	.	.	.	.
4d\	.	4dd\	.	.	.	8bb\L	.	.	.	.	.	.	.	.	.	.	.	.	.	8g/L	.	8.dd\L	.	4gg\	.	4bb\	.
.	.	.	.	4dd\	.	16aa\L	.	.	.	.	.	.	.	.	.	.	.	.	.	8g/J	.	.	.	.	.	.	.
.	.	.	.	.	.	16bb\JJ	.	.	.	.	.	.	.	.	.	.	.	.	.	.	.	16dd\Jk	.	.	.	.	.
.	.	.	.	.	.	8qccc/	.	.	.	.	.	.	.	.	.	.	.	.	.	.	.	.	.	.	.	.	.
4B\	.	4b\	.	.	.	8bb\L	.	2G\	ex-	.	2B\	ex-	.	2g\	-sis	.	2dd\	-sis	.	4g/	.	4dd\	.	4gg\	.	4bb\	.
.	.	.	.	4dd\	.	16aa\L	.	.	.	.	.	.	.	.	.	.	.	.	.	.	.	.	.	.	.	.	.
.	.	.	.	.	.	16bb\JJ	.	.	.	.	.	.	.	.	.	.	.	.	.	.	.	.	.	.	.	.	.
.	.	.	.	.	.	8qccc/	.	.	.	.	.	.	.	.	.	.	.	.	.	.	.	.	.	.	.	.	.
4G\	.	4g\	.	.	.	8bb\L	.	.	.	.	.	.	.	.	.	.	.	.	.	4g/	.	4dd\	.	4gg\	.	4bb\	.
.	.	.	.	[8dd\	.	16aa\L	.	.	.	.	.	.	.	.	.	.	.	.	.	.	.	.	.	.	.	.	.
.	.	.	.	.	.	16bb\JJ	.	.	.	.	.	.	.	.	.	.	.	.	.	.	.	.	.	.	.	.	.
=16	=16	=16	=16	=16	=16	=16	=16	=16	=16	=16	=16	=16	=16	=16	=16	=16	=16	=16	=16	=16	=16	=16	=16	=16	=16	=16	=16
4F#X\	.	4f#X\	.	8dd\]	.	4dd\ 4ccc	.	2F#X\	-cel-	.	2c\	-cel-	.	2a\	in	.	2dd\	in	.	1dd	.	4dd\	.	1aa	.	2ccc\	.
.	.	.	.	4dd\	.	.	.	.	.	.	.	.	.	.	.	.	.	.	.	.	.	.	.	.	.	.	.
.	.	.	.	.	.	8qddd/	.	.	.	.	.	.	.	.	.	.	.	.	.	.	.	.	.	.	.	.	.
4A\	.	4a\	.	.	.	8ccc\L	.	.	.	.	.	.	.	.	.	.	.	.	.	.	.	8.dd\L	.	.	.	.	.
.	.	.	.	4dd\	.	16bb\L	.	.	.	.	.	.	.	.	.	.	.	.	.	.	.	.	.	.	.	.	.
.	.	.	.	.	.	16ccc\JJ	.	.	.	.	.	.	.	.	.	.	.	.	.	.	.	16dd\Jk	.	.	.	.	.
.	.	.	.	.	.	8qddd/	.	.	.	.	.	.	.	.	.	.	.	.	.	.	.	.	.	.	.	.	.
4F#\	.	4f#\	.	.	.	8ccc\L	.	2F#\	-ſis	.	2c\	-ſis	.	2a\	ex-	.	2dd\	ex-	.	.	.	2dd\	.	.	.	4ccc\	.
.	.	.	.	4dd\	.	16bb\L	.	.	.	.	.	.	.	.	.	.	.	.	.	.	.	.	.	.	.	.	.
.	.	.	.	.	.	16ccc\JJ	.	.	.	.	.	.	.	.	.	.	.	.	.	.	.	.	.	.	.	.	.
.	.	.	.	.	.	8qddd/	.	.	.	.	.	.	.	.	.	.	.	.	.	.	.	.	.	.	.	.	.
4D\	.	4d\	.	.	.	8ccc\L	.	.	.	.	.	.	.	.	.	.	.	.	.	.	.	.	.	.	.	4ccc\	.
.	.	.	.	8dd\	.	16bb\L	.	.	.	.	.	.	.	.	.	.	.	.	.	.	.	.	.	.	.	.	.
.	.	.	.	.	.	16ccc\JJ	.	.	.	.	.	.	.	.	.	.	.	.	.	.	.	.	.	.	.	.	.
=17	=17	=17	=17	=17	=17	=17	=17	=17	=17	=17	=17	=17	=17	=17	=17	=17	=17	=17	=17	=17	=17	=17	=17	=17	=17	=17	=17
8G\L	.	8g\L	.	4dd\	.	4dd\ 4bb	.	4G\	De-	.	4B\	De-	.	4g\	-cel-	.	4dd\	-cel-	.	4g/	.	4dd\	.	4gg\	.	4bb\	.
8G\	.	8g\	.	.	.	.	.	.	.	.	.	.	.	.	.	.	.	.	.	.	.	.	.	.	.	.	.
8E\	.	8e\	.	8gg\L	.	16gg\LL	.	4E/	-o	.	4B\	-o	.	4g\	-sis	.	4ee\	-sis	.	4r	.	4r	.	4b\	.	4gg\	.
.	.	.	.	.	.	16gg\	.	.	.	.	.	.	.	.	.	.	.	.	.	.	.	.	.	.	.	.	.
8E\J	.	8e\J	.	8b\J	.	16gg\	.	.	.	.	.	.	.	.	.	.	.	.	.	.	.	.	.	.	.	.	.
.	.	.	.	.	.	16gg\JJ	.	.	.	.	.	.	.	.	.	.	.	.	.	.	.	.	.	.	.	.	.
*	*	*	*	*tremolo	*	*	*	*	*	*	*	*	*	*	*	*	*	*	*	*	*	*	*	*	*	*	*
!	!	!	!	!	!	!LO:LB:g=original	!	!	!	!	!	!	!	!	!	!	!	!	!	!	!	!	!	!	!	!	!
8C/L	.	8e\L	.	16cc\LL	.	16aa\LL	.	4C/	glo-	.	4c\	Glo-	.	(4a\	De-	.	(4ee\	De-	.	4r	.	4r	.	4cc\	.	4aa\	.
.	.	.	.	16cc\	.	16aa\	.	.	.	.	.	.	.	.	.	.	.	.	.	.	.	.	.	.	.	.	.
8C/	.	8e\	.	16cc\	.	16aa\	.	.	.	.	.	.	.	.	.	.	.	.	.	.	.	.	.	.	.	.	.
.	.	.	.	16cc\JJ	.	16aa\JJ	.	.	.	.	.	.	.	.	.	.	.	.	.	.	.	.	.	.	.	.	.
8D/	.	8d\	.	16a/LL	.	16ff#X\LL	.	4D/	-ri-	.	4A\	-ri-	.	4f#X\)	.	.	4dd\)	.	.	4dd\	.	4dd\	.	4a\	.	4ff#X\	.
.	.	.	.	16a/	.	16ff#\	.	.	.	.	.	.	.	.	.	.	.	.	.	.	.	.	.	.	.	.	.
8D/J	.	8d\J	.	16a/	.	16ff#\	.	.	.	.	.	.	.	.	.	.	.	.	.	.	.	.	.	.	.	.	.
.	.	.	.	16a/JJ	.	16ff#\JJ	.	.	.	.	.	.	.	.	.	.	.	.	.	.	.	.	.	.	.	.	.
*	*	*	*	*Xtremolo	*	*	*	*	*	*	*	*	*	*	*	*	*	*	*	*	*	*	*	*	*	*	*
=18	=18	=18	=18	=18	=18	=18	=18	=18	=18	=18	=18	=18	=18	=18	=18	=18	=18	=18	=18	=18	=18	=18	=18	=18	=18	=18	=18
!LO:LB:g=original	!	!	!	!	!	!	!	!	!	!	!	!	!	!	!	!	!	!	!	!	!	!	!	!	!	!	!
4G\	.	4d\	.	4d/ 4b	.	4gg\	.	4GG/	-a	.	4B\	-a	.	4g\	-o	.	4dd\	-o,	.	4g/	.	4dd\	.	4b\	.	4gg\	.
4GG/	.	4d\	.	4d/ 4b	.	4d/ 4b 4gg	.	4r	.	.	4r	.	.	4r	.	.	4r	.	.	8g/L	.	8dd\L	.	4b\	.	4gg\	.
.	.	.	.	.	.	.	.	.	.	.	.	.	.	.	.	.	.	.	.	8g/J	.	8dd\J	.	.	.	.	.
4GG/	.	4d\	.	4d/ 4b	.	4d/ 4b 4gg	.	2r	.	.	2r	.	.	2r	.	.	2r	.	.	4g/	.	4dd\	.	4b\	.	4gg\	.
4r	.	4r	.	4r	.	4r	.	.	.	.	.	.	.	.	.	.	.	.	.	4r	.	4r	.	4r	.	4r	.
=19	=19	=19	=19	=19	=19	=19	=19	=19	=19	=19	=19	=19	=19	=19	=19	=19	=19	=19	=19	=19	=19	=19	=19	=19	=19	=19	=19
!	!LO:DY:a:t=p&colon;	!	!LO:DY:a:t=pia&colon;:rj	!	!LO:DY:a:t=p&colon;:rj	!	!LO:DY:a:t=p&colon;:rj	!	!	!LO:DY:a:t=p&colon;	!	!	!LO:DY:a:t=p&colon;	!	!	!LO:DY:a:t=p&colon;:rj	!	!	!LO:DY:a:t=p&colon;:rj	!	!	!LO:TX:a:t=14:mod=	!	!LO:TX:a:t=14:mod=	!	!LO:TX:a:t=14:mod=	!
2D\	p	2f#X\	p	4dd\	p	4dd\	p	2D\	Et	p	2A\	Et	p	2f#X\	et	p	2dd\	Et	p	00r	.	00r	.	00r	.	00r	.
.	.	.	.	4aa\	.	4aa\	.	.	.	.	.	.	.	.	.	.	.	.	.	.	.	.	.	.	.	.	.
2F#X\	.	2a\	.	4ff#X\	.	4ff#X\	.	2F#X\	in	.	2A\	in	.	2d\	in	.	2cc\	in	.	.	.	.	.	.	.	.	.
.	.	.	.	4cc\	.	4cc\	.	.	.	.	.	.	.	.	.	.	.	.	.	.	.	.	.	.	.	.	.
=20	=20	=20	=20	=20	=20	=20	=20	=20	=20	=20	=20	=20	=20	=20	=20	=20	=20	=20	=20	=20	=20	=20	=20	=20	=20	=20	=20
2G\	.	2d\	.	4b\	.	4b\	.	2G\	ter-	.	2G/	ter-	.	2d\	ter-	.	2b\	ter-	.	.	.	.	.	.	.	.	.
.	.	.	.	4gg\	.	4gg\	.	.	.	.	.	.	.	.	.	.	.	.	.	.	.	.	.	.	.	.	.
2E\	.	2g\	.	4ee\	.	4ee\	.	2E\	-ra	.	2A\	-ra	.	2g\	-ra	.	2cc#X\	-ra	.	.	.	.	.	.	.	.	.
.	.	.	.	4cc#X\	.	4cc#X\	.	.	.	.	.	.	.	.	.	.	.	.	.	.	.	.	.	.	.	.	.
=21	=21	=21	=21	=21	=21	=21	=21	=21	=21	=21	=21	=21	=21	=21	=21	=21	=21	=21	=21	=21	=21	=21	=21	=21	=21	=21	=21
2D\	.	2f#X\	.	4dd\	.	4dd\	.	2D\	pax	.	2A\	pax	.	2f#X\	pax	.	2dd\	pax	.	.	.	.	.	.	.	.	.
.	.	.	.	4aa\	.	4aa\	.	.	.	.	.	.	.	.	.	.	.	.	.	.	.	.	.	.	.	.	.
!	!	!	!	!	!	!	!	!	!	!	!	!	!	!	!	!	!LO:TX:b:t=vertatur	!	!	!	!	!	!	!	!	!	!
2F#X\	.	2a\	.	4ff#X\	.	4ff#X\	.	2F#X\	ho-	.	2A\	ho-	.	2d\	ho-	.	2ccn\	ho-	.	.	.	.	.	.	.	.	.
.	.	.	.	4ccn\	.	4cc\	.	.	.	.	.	.	.	.	.	.	.	.	.	.	.	.	.	.	.	.	.
=22	=22	=22	=22	=22	=22	=22	=22	=22	=22	=22	=22	=22	=22	=22	=22	=22	=22	=22	=22	=22	=22	=22	=22	=22	=22	=22	=22
!	!	!	!	!	!	!	!	!	!	!	!	!	!	!	!	!	!LO:PB:g=original	!	!	!	!	!	!	!	!	!	!
2G\	.	2d\	.	4b\	.	4b\	.	2G\	-mi-	.	2G/	-mi-	.	2d\	-mi-	.	2b\	-mi-	.	.	.	.	.	.	.	.	.
.	.	.	.	4gg\	.	4gg\	.	.	.	.	.	.	.	.	.	.	.	.	.	.	.	.	.	.	.	.	.
*	*	*custos:f#	*	*	*	*	*	*	*	*	*	*	*	*	*	*	*	*	*	*	*	*	*	*	*	*	*
2E\	.	2g\	.	4ee\	.	4ee\	.	2E\	-ni-	.	2A\	-ni-	.	2g\	-ni-	.	2cc#X\	-ni-	.	.	.	.	.	.	.	.	.
.	.	.	.	4cc#X\	.	4cc#X\	.	.	.	.	.	.	.	.	.	.	.	.	.	.	.	.	.	.	.	.	.
=23	=23	=23	=23	=23	=23	=23	=23	=23	=23	=23	=23	=23	=23	=23	=23	=23	=23	=23	=23	=23	=23	=23	=23	=23	=23	=23	=23
!	!	!LO:LB:g=original	!	!	!	!	!	!	!	!	!	!	!	!	!	!	!	!	!	!	!	!	!	!	!	!	!
4D\	.	4f#X\	.	4dd\	.	4dd\	.	4D\	-b(us)	.	4A/	-bus	.	4f#X\	-bus	.	4dd\	-bus	.	00r	.	00r	.	00r	.	00r	.
!	!	!	!	!	!	!	!LO:DY:a:t=pp&colon;	!	!	!	!	!	!	!	!	!	!	!	!	!	!	!	!	!	!	!	!
4r	.	4r	.	4r	.	8f#X/L	pp	4r	.	.	4r	.	.	4r	.	.	4r	.	.	.	.	.	.	.	.	.	.
.	.	.	.	.	.	8e/J	.	.	.	.	.	.	.	.	.	.	.	.	.	.	.	.	.	.	.	.	.
2r	.	2r	.	2r	.	8d/L	.	2r	.	.	2r	.	.	2r	.	.	2r	.	.	.	.	.	.	.	.	.	.
.	.	.	.	.	.	8c/	.	.	.	.	.	.	.	.	.	.	.	.	.	.	.	.	.	.	.	.	.
.	.	.	.	.	.	8B/	.	.	.	.	.	.	.	.	.	.	.	.	.	.	.	.	.	.	.	.	.
.	.	.	.	.	.	8A/J	.	.	.	.	.	.	.	.	.	.	.	.	.	.	.	.	.	.	.	.	.
=24	=24	=24	=24	=24	=24	=24	=24	=24	=24	=24	=24	=24	=24	=24	=24	=24	=24	=24	=24	=24	=24	=24	=24	=24	=24	=24	=24
!	!	!	!	!	!	!	!	!LO:LB:g=original	!	!	!LO:LB:g=original	!	!	!	!	!	!	!	!	!	!	!	!	!	!	!	!
!	!	!LO:TX:a:t=9:mod=	!	!LO:LB:g=original	!	!	!	!LO:TX:a:t=9:mod=	!	!	!LO:TX:a:t=9:mod=	!	!	!LO:TX:a:t=9:mod=	!	!	!	!	!	!	!	!	!	!	!	!	!
00r	.	00r	.	00r	.	8G/L	.	00r	.	.	00r	.	.	00r	.	.	00r	.	.	.	.	.	.	.	.	.	.
.	.	.	.	.	.	8A/	.	.	.	.	.	.	.	.	.	.	.	.	.	.	.	.	.	.	.	.	.
.	.	.	.	.	.	8B/	.	.	.	.	.	.	.	.	.	.	.	.	.	.	.	.	.	.	.	.	.
.	.	.	.	.	.	8c/J	.	.	.	.	.	.	.	.	.	.	.	.	.	.	.	.	.	.	.	.	.
.	.	.	.	.	.	8d/L	.	.	.	.	.	.	.	.	.	.	.	.	.	.	.	.	.	.	.	.	.
.	.	.	.	.	.	8e/	.	.	.	.	.	.	.	.	.	.	.	.	.	.	.	.	.	.	.	.	.
.	.	.	.	.	.	8f#X/	.	.	.	.	.	.	.	.	.	.	.	.	.	.	.	.	.	.	.	.	.
.	.	.	.	.	.	8g/J	.	.	.	.	.	.	.	.	.	.	.	.	.	.	.	.	.	.	.	.	.
=25	=25	=25	=25	=25	=25	=25	=25	=25	=25	=25	=25	=25	=25	=25	=25	=25	=25	=25	=25	=25	=25	=25	=25	=25	=25	=25	=25
.	.	.	.	.	.	8a/L	.	.	.	.	.	.	.	.	.	.	.	.	.	.	.	.	.	.	.	.	.
.	.	.	.	.	.	8g/	.	.	.	.	.	.	.	.	.	.	.	.	.	.	.	.	.	.	.	.	.
.	.	.	.	.	.	8f#X/	.	.	.	.	.	.	.	.	.	.	.	.	.	.	.	.	.	.	.	.	.
.	.	.	.	.	.	8e/J	.	.	.	.	.	.	.	.	.	.	.	.	.	.	.	.	.	.	.	.	.
.	.	.	.	.	.	8d/L	.	.	.	.	.	.	.	.	.	.	.	.	.	.	.	.	.	.	.	.	.
.	.	.	.	.	.	8c/	.	.	.	.	.	.	.	.	.	.	.	.	.	.	.	.	.	.	.	.	.
.	.	.	.	.	.	8B/	.	.	.	.	.	.	.	.	.	.	.	.	.	.	.	.	.	.	.	.	.
.	.	.	.	.	.	8A/J	.	.	.	.	.	.	.	.	.	.	.	.	.	.	.	.	.	.	.	.	.
=26	=26	=26	=26	=26	=26	=26	=26	=26	=26	=26	=26	=26	=26	=26	=26	=26	=26	=26	=26	=26	=26	=26	=26	=26	=26	=26	=26
.	.	.	.	.	.	8G/	.	.	.	.	.	.	.	.	.	.	.	.	.	.	.	.	.	.	.	.	.
.	.	.	.	.	.	8r	.	.	.	.	.	.	.	.	.	.	.	.	.	.	.	.	.	.	.	.	.
.	.	.	.	.	.	4r	.	.	.	.	.	.	.	.	.	.	.	.	.	.	.	.	.	.	.	.	.
.	.	.	.	.	.	2g/	.	.	.	.	.	.	.	.	.	.	.	.	.	.	.	.	.	.	.	.	.
=27	=27	=27	=27	=27	=27	=27	=27	=27	=27	=27	=27	=27	=27	=27	=27	=27	=27	=27	=27	=27	=27	=27	=27	=27	=27	=27	=27
!	!	!	!	!	!	!LO:LB:g=original	!	!	!	!	!	!	!	!	!	!	!	!	!	!	!	!	!	!	!	!	!
.	.	.	.	.	.	1g	.	.	.	.	.	.	.	.	.	.	.	.	.	00r	.	00r	.	00r	.	00r	.
=28	=28	=28	=28	=28	=28	=28	=28	=28	=28	=28	=28	=28	=28	=28	=28	=28	=28	=28	=28	=28	=28	=28	=28	=28	=28	=28	=28
00r	.	00r	.	00r	.	4g/	.	00r	.	.	00r	.	.	00r	.	.	00r	.	.	.	.	.	.	.	.	.	.
.	.	.	.	.	.	4cc\	.	.	.	.	.	.	.	.	.	.	.	.	.	.	.	.	.	.	.	.	.
.	.	.	.	.	.	4b\	.	.	.	.	.	.	.	.	.	.	.	.	.	.	.	.	.	.	.	.	.
.	.	.	.	.	.	4r	.	.	.	.	.	.	.	.	.	.	.	.	.	.	.	.	.	.	.	.	.
=29	=29	=29	=29	=29	=29	=29	=29	=29	=29	=29	=29	=29	=29	=29	=29	=29	=29	=29	=29	=29	=29	=29	=29	=29	=29	=29	=29
.	.	.	.	.	.	0r	.	.	.	.	.	.	.	.	.	.	.	.	.	.	.	.	.	.	.	.	.
=30	=30	=30	=30	=30	=30	=30	=30	=30	=30	=30	=30	=30	=30	=30	=30	=30	=30	=30	=30	=30	=30	=30	=30	=30	=30	=30	=30
.	.	.	.	.	.	.	.	.	.	.	.	.	.	.	.	.	.	.	.	.	.	.	.	.	.	.	.
=31	=31	=31	=31	=31	=31	=31	=31	=31	=31	=31	=31	=31	=31	=31	=31	=31	=31	=31	=31	=31	=31	=31	=31	=31	=31	=31	=31
.	.	.	.	.	.	1r	.	.	.	.	.	.	.	.	.	.	.	.	.	0r	.	0r	.	0r	.	0r	.
*	*	*	*	*	*	*	*	*	*	*	*	*	*	*	*	*	*	*	*	*	*	*	*	*	*	*	*
=32	=32	=32	=32	=32	=32	=32	=32	=32	=32	=32	=32	=32	=32	=32	=32	=32	=32	=32	=32	=32	=32	=32	=32	=32	=32	=32	=32
1r	.	1r	.	1r	.	4r	.	1r	.	.	1r	.	.	1r	.	.	2r	.	.	.	.	.	.	.	.	.	.
.	.	.	.	.	.	8dd\L	.	.	.	.	.	.	.	.	.	.	.	.	.	.	.	.	.	.	.	.	.
.	.	.	.	.	.	8ee\J	.	.	.	.	.	.	.	.	.	.	.	.	.	.	.	.	.	.	.	.	.
!	!	!	!	!	!	!	!	!	!	!	!	!	!	!	!	!	!	!	!LO:DY:a:t=f.:rj	!	!	!	!	!	!	!	!
.	.	.	.	.	.	4dd\	.	.	.	.	.	.	.	.	.	.	4dd\	bo-	f	.	.	.	.	.	.	.	.
.	.	.	.	.	.	4dd\	.	.	.	.	.	.	.	.	.	.	4dd\	-nae	.	.	.	.	.	.	.	.	.
=33	=33	=33	=33	=33	=33	=33	=33	=33	=33	=33	=33	=33	=33	=33	=33	=33	=33	=33	=33	=33	=33	=33	=33	=33	=33	=33	=33
*tremolo	*	*tremolo	*	*	*	*	*	*	*	*	*	*	*	*	*	*	*	*	*	*	*	*	*	*	*	*	*
!	!LO:DY:a:t=for&colon;:rj	!	!LO:DY:a:t=For&colon;:rj	!	!LO:DY:a:t=for&colon;:rj	!	!LO:DY:a:t=for&colon;:rj	!	!	!LO:MO:null:mod=f	!	!	!LO:DY:a:t=f.:rj	!LO:LB:g=original	!	!LO:DY:a:t=f&colon;:rj	!	!	!LO:MO:null:mod=f	!	!	!LO:LB:g=original	!	!	!	!	!
8B\L	f	8g\L	f	16dd\LL	f	8gg\	f	1B	bo-	.	1d	bo-	f	1g	bo-	f	1dd	bo-	.	4g/	.	4dd\	.	2dd\	.	2gg\	.
.	.	.	.	16dd\	.	.	.	.	.	.	.	.	.	.	.	.	.	.	.	.	.	.	.	.	.	.	.
8B\	.	8g\	.	16dd\	.	4bb\	.	.	.	.	.	.	.	.	.	.	.	.	.	.	.	.	.	.	.	.	.
.	.	.	.	16dd\JJ	.	.	.	.	.	.	.	.	.	.	.	.	.	.	.	.	.	.	.	.	.	.	.
*	*	*	*	*tremolo	*	*	*	*	*	*	*	*	*	*	*	*	*	*	*	*	*	*	*	*	*	*	*
8B\	.	8g\	.	16dd\LL	.	.	.	.	.	.	.	.	.	.	.	.	.	.	.	8g/L	.	8dd\L	.	.	.	.	.
.	.	.	.	16dd\	.	.	.	.	.	.	.	.	.	.	.	.	.	.	.	.	.	.	.	.	.	.	.
8B\J	.	8g\J	.	16dd\	.	4ddd\	.	.	.	.	.	.	.	.	.	.	.	.	.	8g/J	.	8dd\J	.	.	.	.	.
.	.	.	.	16dd\JJ	.	.	.	.	.	.	.	.	.	.	.	.	.	.	.	.	.	.	.	.	.	.	.
8B\L	.	8g\L	.	16dd\LL	.	.	.	.	.	.	.	.	.	.	.	.	.	.	.	4g/	.	4dd\	.	2dd\	.	2ffn\	.
.	.	.	.	16dd\	.	.	.	.	.	.	.	.	.	.	.	.	.	.	.	.	.	.	.	.	.	.	.
8B\	.	8g\	.	16dd\	.	4bb\	.	.	.	.	.	.	.	.	.	.	.	.	.	.	.	.	.	.	.	.	.
.	.	.	.	16dd\	.	.	.	.	.	.	.	.	.	.	.	.	.	.	.	.	.	.	.	.	.	.	.
8B\	.	8g\	.	16dd\	.	.	.	.	.	.	.	.	.	.	.	.	.	.	.	4g/	.	4dd\	.	.	.	.	.
.	.	.	.	16dd\	.	.	.	.	.	.	.	.	.	.	.	.	.	.	.	.	.	.	.	.	.	.	.
8B\J	.	8g\J	.	16dd\	.	[8ffn\	.	.	.	.	.	.	.	.	.	.	.	.	.	.	.	.	.	.	.	.	.
.	.	.	.	16dd\JJ	.	.	.	.	.	.	.	.	.	.	.	.	.	.	.	.	.	.	.	.	.	.	.
=34	=34	=34	=34	=34	=34	=34	=34	=34	=34	=34	=34	=34	=34	=34	=34	=34	=34	=34	=34	=34	=34	=34	=34	=34	=34	=34	=34
!	!	!	!	!	!	!	!	!	!	!	!	!	!	!	!	!	!	!	!	!	!	!	!	!	!	!LO:LB:g=original	!
8c\L	.	8g\L	.	16ee\LL	.	8ff\]	.	1c	-nae	.	1c	-nae	.	1g	-nae	.	1ee	-nae	.	2cc\	.	4ee\	.	2g/	.	2ee\	.
.	.	.	.	16ee\	.	.	.	.	.	.	.	.	.	.	.	.	.	.	.	.	.	.	.	.	.	.	.
8c\	.	8g\	.	16ee\	.	4ee\	.	.	.	.	.	.	.	.	.	.	.	.	.	.	.	.	.	.	.	.	.
.	.	.	.	16ee\	.	.	.	.	.	.	.	.	.	.	.	.	.	.	.	.	.	.	.	.	.	.	.
8c\	.	8g\	.	16ee\	.	.	.	.	.	.	.	.	.	.	.	.	.	.	.	.	.	8ee\L	.	.	.	.	.
.	.	.	.	16ee\	.	.	.	.	.	.	.	.	.	.	.	.	.	.	.	.	.	.	.	.	.	.	.
8c\J	.	8g\J	.	16ee\	.	4gg\	.	.	.	.	.	.	.	.	.	.	.	.	.	.	.	8ee\J	.	.	.	.	.
.	.	.	.	16ee\JJ	.	.	.	.	.	.	.	.	.	.	.	.	.	.	.	.	.	.	.	.	.	.	.
8c\L	.	8g\L	.	16ee\LL	.	.	.	.	.	.	.	.	.	.	.	.	.	.	.	2cc\	.	4ee\	.	2ee\	.	2gg\	.
.	.	.	.	16ee\	.	.	.	.	.	.	.	.	.	.	.	.	.	.	.	.	.	.	.	.	.	.	.
8c\	.	8g\	.	16ee\	.	4ee\	.	.	.	.	.	.	.	.	.	.	.	.	.	.	.	.	.	.	.	.	.
.	.	.	.	16ee\	.	.	.	.	.	.	.	.	.	.	.	.	.	.	.	.	.	.	.	.	.	.	.
8c\	.	8g\	.	16ee\	.	.	.	.	.	.	.	.	.	.	.	.	.	.	.	.	.	4ee\	.	.	.	.	.
.	.	.	.	16ee\	.	.	.	.	.	.	.	.	.	.	.	.	.	.	.	.	.	.	.	.	.	.	.
8c\J	.	8g\J	.	16ee\	.	8cc\	.	.	.	.	.	.	.	.	.	.	.	.	.	.	.	.	.	.	.	.	.
.	.	.	.	16ee\JJ	.	.	.	.	.	.	.	.	.	.	.	.	.	.	.	.	.	.	.	.	.	.	.
*	*	*	*	*Xtremolo	*	*	*	*	*	*	*	*	*	*	*	*	*	*	*	*	*	*	*	*	*	*	*
=35	=35	=35	=35	=35	=35	=35	=35	=35	=35	=35	=35	=35	=35	=35	=35	=35	=35	=35	=35	=35	=35	=35	=35	=35	=35	=35	=35
8d\L	.	8g\L	.	16b\LL	.	16b\LL	.	4d\	vo-	.	4B\	vo-	.	4g\	vo-	.	4dd\	vo-	.	4dd\	.	4dd\	.	2b\	.	2gg\	.
.	.	.	.	16gg\	.	16gg\	.	.	.	.	.	.	.	.	.	.	.	.	.	.	.	.	.	.	.	.	.
8d\	.	8g\	.	16b\	.	16b\	.	.	.	.	.	.	.	.	.	.	.	.	.	.	.	.	.	.	.	.	.
.	.	.	.	16gg\JJ	.	16gg\JJ	.	.	.	.	.	.	.	.	.	.	.	.	.	.	.	.	.	.	.	.	.
8d\	.	8g\	.	16b\LL	.	16b\LL	.	4d\	-lun-	.	4B\	-lun-	.	4g\	-lun-	.	4dd\	-lun-	.	8dd\L	.	4r	.	.	.	.	.
.	.	.	.	16gg\	.	16gg\	.	.	.	.	.	.	.	.	.	.	.	.	.	.	.	.	.	.	.	.	.
8d\J	.	8g\J	.	16b\	.	16b\	.	.	.	.	.	.	.	.	.	.	.	.	.	8dd\J	.	.	.	.	.	.	.
.	.	.	.	16gg\JJ	.	16gg\JJ	.	.	.	.	.	.	.	.	.	.	.	.	.	.	.	.	.	.	.	.	.
*	*	*	*	*tremolo	*	*	*	*	*	*	*	*	*	*	*	*	*	*	*	*	*	*	*	*	*	*	*
8D/L	.	8a\L	.	16a\LL	.	16a/LL	.	4D/	-ta-	.	4A\	-ta-	.	4f#X\	-ta-	.	4dd\	-ta-	.	4dd\	.	4dd\	.	2a\	.	2ff#X\	.
.	.	.	.	16ff#X\	.	16ff#X/	.	.	.	.	.	.	.	.	.	.	.	.	.	.	.	.	.	.	.	.	.
8D/	.	8a\	.	16a\	.	16a/	.	.	.	.	.	.	.	.	.	.	.	.	.	.	.	.	.	.	.	.	.
.	.	.	.	16ff#X\	.	16ff#/JJ	.	.	.	.	.	.	.	.	.	.	.	.	.	.	.	.	.	.	.	.	.
8D/	.	8a\	.	16a\	.	16a/LL	.	4D/	-tiſ	.	4A\	-tis	.	4f#\	-tis	.	4dd\	-tis	.	4dd\	.	4dd\	.	.	.	.	.
.	.	.	.	16ff#X\	.	16ff#/	.	.	.	.	.	.	.	.	.	.	.	.	.	.	.	.	.	.	.	.	.
8D/J	.	8a\J	.	16a\	.	16a/	.	.	.	.	.	.	.	.	.	.	.	.	.	.	.	.	.	.	.	.	.
.	.	.	.	16ff#X\JJ	.	16ff#/JJ	.	.	.	.	.	.	.	.	.	.	.	.	.	.	.	.	.	.	.	.	.
*	*	*	*	*Xtremolo	*	*	*	*	*	*	*	*	*	*	*	*	*	*	*	*	*	*	*	*	*	*	*
=36	=36	=36	=36	=36	=36	=36	=36	=36	=36	=36	=36	=36	=36	=36	=36	=36	=36	=36	=36	=36	=36	=36	=36	=36	=36	=36	=36
!	!	!	!	!	!	!	!	!	!	!	!	!	!	!	!	!	!	!	!	!LO:LB:g=original	!	!	!	!	!	!	!
8G\L	.	8g\L	.	16gg\LL	.	8gg\	.	1B	bo-	.	1d	bo-	.	1g	bo-	.	1dd	bo-	.	4g/	.	4dd\	.	2b\	.	2gg\	.
.	.	.	.	16dd\	.	.	.	.	.	.	.	.	.	.	.	.	.	.	.	.	.	.	.	.	.	.	.
8G\	.	8g\	.	16dd\	.	4ddd\	.	.	.	.	.	.	.	.	.	.	.	.	.	.	.	.	.	.	.	.	.
.	.	.	.	16dd\JJ	.	.	.	.	.	.	.	.	.	.	.	.	.	.	.	.	.	.	.	.	.	.	.
8G\	.	8g\	.	16dd\LL	.	.	.	.	.	.	.	.	.	.	.	.	.	.	.	4r	.	4r	.	.	.	.	.
.	.	.	.	16dd\	.	.	.	.	.	.	.	.	.	.	.	.	.	.	.	.	.	.	.	.	.	.	.
8G\J	.	8g\J	.	16dd\	.	4bb\	.	.	.	.	.	.	.	.	.	.	.	.	.	.	.	.	.	.	.	.	.
.	.	.	.	16dd\JJ	.	.	.	.	.	.	.	.	.	.	.	.	.	.	.	.	.	.	.	.	.	.	.
*	*	*	*	*tremolo	*	*	*	*	*	*	*	*	*	*	*	*	*	*	*	*	*	*	*	*	*	*	*
8B\L	.	8g\L	.	16dd\LL	.	.	.	.	.	.	.	.	.	.	.	.	.	.	.	4g/	.	4dd\	.	2dd\	.	2ffn\	.
.	.	.	.	16dd\	.	.	.	.	.	.	.	.	.	.	.	.	.	.	.	.	.	.	.	.	.	.	.
8B\	.	8g\	.	16dd\	.	4gg\	.	.	.	.	.	.	.	.	.	.	.	.	.	.	.	.	.	.	.	.	.
.	.	.	.	16dd\	.	.	.	.	.	.	.	.	.	.	.	.	.	.	.	.	.	.	.	.	.	.	.
8B\	.	8g\	.	16dd\	.	.	.	.	.	.	.	.	.	.	.	.	.	.	.	4g/	.	4dd\	.	.	.	.	.
.	.	.	.	16dd\	.	.	.	.	.	.	.	.	.	.	.	.	.	.	.	.	.	.	.	.	.	.	.
8B\J	.	8g\J	.	16dd\	.	[8ffn\	.	.	.	.	.	.	.	.	.	.	.	.	.	.	.	.	.	.	.	.	.
.	.	.	.	16dd\JJ	.	.	.	.	.	.	.	.	.	.	.	.	.	.	.	.	.	.	.	.	.	.	.
=37	=37	=37	=37	=37	=37	=37	=37	=37	=37	=37	=37	=37	=37	=37	=37	=37	=37	=37	=37	=37	=37	=37	=37	=37	=37	=37	=37
8c\L	.	8g\L	.	16ee\LL	.	8ff\]	.	1c	-nae	.	1c	-nae	.	1g	-nae	.	1ee	-nae	.	4cc\	.	4ee\	.	2g\	.	2ee\	.
.	.	.	.	16ee\	.	.	.	.	.	.	.	.	.	.	.	.	.	.	.	.	.	.	.	.	.	.	.
8c\	.	8g\	.	16ee\	.	4ee\	.	.	.	.	.	.	.	.	.	.	.	.	.	.	.	.	.	.	.	.	.
.	.	.	.	16ee\	.	.	.	.	.	.	.	.	.	.	.	.	.	.	.	.	.	.	.	.	.	.	.
8c\	.	8g\	.	16ee\	.	.	.	.	.	.	.	.	.	.	.	.	.	.	.	4r	.	4r	.	.	.	.	.
.	.	.	.	16ee\	.	.	.	.	.	.	.	.	.	.	.	.	.	.	.	.	.	.	.	.	.	.	.
8c\J	.	8g\J	.	16ee\	.	4gg\	.	.	.	.	.	.	.	.	.	.	.	.	.	.	.	.	.	.	.	.	.
.	.	.	.	16ee\JJ	.	.	.	.	.	.	.	.	.	.	.	.	.	.	.	.	.	.	.	.	.	.	.
!LO:LB:g=original	!	!	!	!	!	!	!	!	!	!	!	!	!	!	!	!	!	!	!	!	!	!	!	!	!	!	!
8c\L	.	8g\L	.	16ee\LL	.	.	.	.	.	.	.	.	.	.	.	.	.	.	.	4cc\	.	4ee\	.	2ee\	.	2gg\	.
.	.	.	.	16ee\	.	.	.	.	.	.	.	.	.	.	.	.	.	.	.	.	.	.	.	.	.	.	.
8c\	.	8g\	.	16ee\	.	4ee\	.	.	.	.	.	.	.	.	.	.	.	.	.	.	.	.	.	.	.	.	.
.	.	.	.	16ee\	.	.	.	.	.	.	.	.	.	.	.	.	.	.	.	.	.	.	.	.	.	.	.
8c\	.	8g\	.	16ee\	.	.	.	.	.	.	.	.	.	.	.	.	.	.	.	4cc\	.	4ee\	.	.	.	.	.
.	.	.	.	16ee\	.	.	.	.	.	.	.	.	.	.	.	.	.	.	.	.	.	.	.	.	.	.	.
8c\J	.	8g\J	.	16ee\	.	8cc\	.	.	.	.	.	.	.	.	.	.	.	.	.	.	.	.	.	.	.	.	.
.	.	.	.	16ee\JJ	.	.	.	.	.	.	.	.	.	.	.	.	.	.	.	.	.	.	.	.	.	.	.
=38	=38	=38	=38	=38	=38	=38	=38	=38	=38	=38	=38	=38	=38	=38	=38	=38	=38	=38	=38	=38	=38	=38	=38	=38	=38	=38	=38
!	!	!	!	!	!	!LO:LB:g=original	!	!	!	!	!	!	!	!	!	!	!	!	!	!	!	!	!	!LO:LB:g=original	!	!	!
8d\L	.	8g\L	.	16b\LL	.	16b\LL	.	2d\	vo-	.	2d\	vo-	.	2g\	vo-	.	2b\	vo-	.	4dd\	.	4dd\	.	2b\	.	4gg\	.
.	.	.	.	16b\	.	16gg\	.	.	.	.	.	.	.	.	.	.	.	.	.	.	.	.	.	.	.	.	.
8d\	.	8g\	.	16b\	.	16gg\	.	.	.	.	.	.	.	.	.	.	.	.	.	.	.	.	.	.	.	.	.
.	.	.	.	16b\	.	16gg\JJ	.	.	.	.	.	.	.	.	.	.	.	.	.	.	.	.	.	.	.	.	.
8d\	.	8g\	.	16b\	.	16gg\LL	.	.	.	.	.	.	.	.	.	.	.	.	.	8dd\L	.	8dd\L	.	.	.	4gg\	.
.	.	.	.	16b\	.	16gg\	.	.	.	.	.	.	.	.	.	.	.	.	.	.	.	.	.	.	.	.	.
8d\J	.	8g\J	.	16b\	.	16gg\	.	.	.	.	.	.	.	.	.	.	.	.	.	8dd\J	.	8dd\J	.	.	.	.	.
.	.	.	.	16b\JJ	.	16gg\JJ	.	.	.	.	.	.	.	.	.	.	.	.	.	.	.	.	.	.	.	.	.
*	*	*	*	*	*	*tremolo	*	*	*	*	*	*	*	*	*	*	*	*	*	*	*	*	*	*	*	*	*
8D\L	.	8g\L	.	16b\LL	.	16gg\LL	.	2d\	-lun-	.	2d\	-lun-	.	2g\	-lun-	.	2b\	-lun-	.	4dd\	.	4dd\	.	4b\	.	4gg\	.
.	.	.	.	16b\	.	16gg\	.	.	.	.	.	.	.	.	.	.	.	.	.	.	.	.	.	.	.	.	.
8D\	.	8g\	.	16b\	.	16gg\	.	.	.	.	.	.	.	.	.	.	.	.	.	.	.	.	.	.	.	.	.
.	.	.	.	16b\	.	16gg\	.	.	.	.	.	.	.	.	.	.	.	.	.	.	.	.	.	.	.	.	.
8D\	.	8g\	.	16b\	.	16gg\	.	.	.	.	.	.	.	.	.	.	.	.	.	4dd\	.	4dd\	.	4b\	.	4gg\	.
.	.	.	.	16b\	.	16gg\	.	.	.	.	.	.	.	.	.	.	.	.	.	.	.	.	.	.	.	.	.
8D\J	.	8g\J	.	16b\	.	16gg\	.	.	.	.	.	.	.	.	.	.	.	.	.	.	.	.	.	.	.	.	.
.	.	.	.	16b\JJ	.	16gg\JJ	.	.	.	.	.	.	.	.	.	.	.	.	.	.	.	.	.	.	.	.	.
=39	=39	=39	=39	=39	=39	=39	=39	=39	=39	=39	=39	=39	=39	=39	=39	=39	=39	=39	=39	=39	=39	=39	=39	=39	=39	=39	=39
8d\L	.	8d\L	.	16a/LL	.	16gg\LL	.	1D	-ta-	.	1d	-ta-	.	(2g\	-ta-	.	1a	-ta-	.	4dd\	.	4dd\	.	1a	.	2gg\	.
.	.	.	.	16a/	.	16gg\	.	.	.	.	.	.	.	.	.	.	.	.	.	.	.	.	.	.	.	.	.
8d\	.	8d\	.	16a/	.	16gg\	.	.	.	.	.	.	.	.	.	.	.	.	.	.	.	.	.	.	.	.	.
.	.	.	.	16a/	.	16gg\	.	.	.	.	.	.	.	.	.	.	.	.	.	.	.	.	.	.	.	.	.
8d\	.	8d\	.	16a/	.	16gg\	.	.	.	.	.	.	.	.	.	.	.	.	.	8dd\L	.	8dd\L	.	.	.	.	.
.	.	.	.	16a/	.	16gg\	.	.	.	.	.	.	.	.	.	.	.	.	.	.	.	.	.	.	.	.	.
8d\J	.	8d\J	.	16a/	.	16gg\	.	.	.	.	.	.	.	.	.	.	.	.	.	8dd\J	.	8dd\J	.	.	.	.	.
.	.	.	.	16a/JJ	.	16gg\JJ	.	.	.	.	.	.	.	.	.	.	.	.	.	.	.	.	.	.	.	.	.
8D/L	.	8d\L	.	16a/LL	.	16ff#X\LL	.	.	.	.	.	.	.	2f#X\)	.	.	.	.	.	4dd\	.	4dd\	.	.	.	2ff#X\	.
.	.	.	.	16a/	.	16ff#X\	.	.	.	.	.	.	.	.	.	.	.	.	.	.	.	.	.	.	.	.	.
8D/	.	8d\	.	16a/	.	16ff#X\	.	.	.	.	.	.	.	.	.	.	.	.	.	.	.	.	.	.	.	.	.
.	.	.	.	16a/	.	16ff#X\	.	.	.	.	.	.	.	.	.	.	.	.	.	.	.	.	.	.	.	.	.
8D/	.	8d\	.	16a/	.	16ff#X\	.	.	.	.	.	.	.	.	.	.	.	.	.	4dd\	.	4dd\	.	.	.	.	.
.	.	.	.	16a/	.	16ff#X\	.	.	.	.	.	.	.	.	.	.	.	.	.	.	.	.	.	.	.	.	.
8D/J	.	8d\J	.	16a/	.	16ff#X\	.	.	.	.	.	.	.	.	.	.	.	.	.	.	.	.	.	.	.	.	.
.	.	.	.	16a/JJ	.	16ff#X\JJ	.	.	.	.	.	.	.	.	.	.	.	.	.	.	.	.	.	.	.	.	.
*Xtremolo	*	*Xtremolo	*	*Xtremolo	*	*Xtremolo	*	*	*	*	*	*	*	*	*	*	*	*	*	*	*	*	*	*	*	*	*
=40	=40	=40	=40	=40	=40	=40	=40	=40	=40	=40	=40	=40	=40	=40	=40	=40	=40	=40	=40	=40	=40	=40	=40	=40	=40	=40	=40
*	*	*^	*	*	*	*	*	*	*	*	*	*	*	*	*	*	*	*	*	*	*	*	*	*	*	*	*
4G\	.	4g\	4ryy	.	4b/	.	4gg\	.	4G\	-tiſ	.	4d\	-tis	.	4g\	-tis	.	4b\	-tis	.	4g/	.	4dd\	.	4b/	.	4gg\	.
4GG/	.	4d/	4B\	.	16g/LL	.	16g/LL	.	4r	.	.	4r	.	.	4r	.	.	4r	.	.	4g/	.	4g/	.	4g/	.	4g/	.
.	.	.	.	.	16a/	.	16a/	.	.	.	.	.	.	.	.	.	.	.	.	.	.	.	.	.	.	.	.	.
.	.	.	.	.	16b/	.	16b/	.	.	.	.	.	.	.	.	.	.	.	.	.	.	.	.	.	.	.	.	.
.	.	.	.	.	16a/JJ	.	16a/JJ	.	.	.	.	.	.	.	.	.	.	.	.	.	.	.	.	.	.	.	.	.
4GG/	.	4d/	4B\	.	4g/	.	4g/	.	2r	.	.	2r	.	.	2r	.	.	2r	.	.	4g/	.	4g/	.	4g/	.	4g/	.
4r	.	4r	4ryy	.	4r	.	4r	.	.	.	.	.	.	.	.	.	.	.	.	.	4r	.	4r	.	4r	.	4r	.
*	*	*v	*v	*	*	*	*	*	*	*	*	*	*	*	*	*	*	*	*	*	*	*	*	*	*	*	*	*
=41	=41	=41	=41	=41	=41	=41	=41	=41	=41	=41	=41	=41	=41	=41	=41	=41	=41	=41	=41	=41	=41	=41	=41	=41	=41	=41	=41
!	!LO:DY:a:t=p&colon;	!	!	!LO:LB:g=original	!	!	!LO:DY:a:t=pia&colon;	!	!	!	!	!	!	!	!	!LO:DY:a:t=p&colon;	!	!	!LO:DY:a:t=p&colon;:rj	!LO:TX:a:t=5:mod=	!	!	!	!	!	!	!
!	!LO:MO:mod=.	!	!	!	!	!	!	!	!	!	!	!	!	!	!	!LO:MO:null:mod=.	!	!	!	!	!	!	!	!	!	!	!
2r	p	1r	.	2r	.	2gg\	p	2r	.	.	2r	.	.	2r	.	p	2gg\	Et	p	00r	.	00r	.	1r	.	1r	.
!	!LO:MO:null:mod=p	!	!	!	!LO:DY:a:t=p&colon;:rj	!	!	!	!	!LO:DY:a:t=p&colon;	!	!	!LO:DY:a:t=p&colon;	!	!	!LO:MO:null:mod=p	!	!	!	!	!	!	!	!	!	!	!
2G\	.	.	.	2b-X\	p	2ee\	.	2G\	in	p	2B-X\	in	p	2g\	in	.	2ee\	in	.	.	.	.	.	.	.	.	.
=42	=42	=42	=42	=42	=42	=42	=42	=42	=42	=42	=42	=42	=42	=42	=42	=42	=42	=42	=42	=42	=42	=42	=42	=42	=42	=42	=42
!	!	!	!LO:DY:a:t=pia&colon;	!	!	!	!	!	!	!	!	!	!	!	!	!	!LO:LB:g=original	!	!	!	!	!	!	!	!LO:DY:a:t=pia&colon;:rj	!	!LO:DY:a:t=pianiſ.
!	!	!	!	!	!	!	!	!	!	!	!	!	!	!	!	!	!	!	!	!	!	!	!	!	!	!	!LO:MO:mod=p
4A\	.	8A/	p	8a/	.	2cc#X\	.	(4A\	ter-	.	2A\	ter-	.	2e\	ter-	.	2cc#X\	ter-	.	.	.	.	.	1a	p	2cc#X\	pp
.	.	4A/	.	4a/	.	.	.	.	.	.	.	.	.	.	.	.	.	.	.	.	.	.	.	.	.	.	.
4G\	.	.	.	.	.	.	.	4G\)	.	.	.	.	.	.	.	.	.	.	.	.	.	.	.	.	.	.	.
.	.	4A/	.	4a/	.	.	.	.	.	.	.	.	.	.	.	.	.	.	.	.	.	.	.	.	.	.	.
4F\	.	.	.	.	.	2dd\	.	(4F\	-ra	.	2A\	-ra	.	2f\	-ra	.	2dd\	-ra	.	.	.	.	.	.	.	2dd\	.
.	.	4A/	.	4a/	.	.	.	.	.	.	.	.	.	.	.	.	.	.	.	.	.	.	.	.	.	.	.
4D\	.	.	.	.	.	.	.	4D\)	.	.	.	.	.	.	.	.	.	.	.	.	.	.	.	.	.	.	.
.	.	[8A/	.	[8a/	.	.	.	.	.	.	.	.	.	.	.	.	.	.	.	.	.	.	.	.	.	.	.
=43	=43	=43	=43	=43	=43	=43	=43	=43	=43	=43	=43	=43	=43	=43	=43	=43	=43	=43	=43	=43	=43	=43	=43	=43	=43	=43	=43
!	!	!LO:TX:t=P:problem=brak zakończenia ligatury	!	!	!	!	!	!	!	!	!	!	!	!	!	!	!	!	!	!	!	!	!	!	!	!	!
!	!	!LO:LB:g=original	!	!	!	!	!	!	!	!	!	!	!	!	!	!	!	!	!	!	!	!	!	!	!	!	!
4C#X/	.	8A/]	.	8a/]	.	2ee\	.	2C#X/	pax	.	2A\	pax	.	2g\	pax	.	2ee\	pax	.	.	.	.	.	1a	.	2ee\	.
.	.	4A/	.	4a/	.	.	.	.	.	.	.	.	.	.	.	.	.	.	.	.	.	.	.	.	.	.	.
4AA/	.	.	.	.	.	.	.	.	.	.	.	.	.	.	.	.	.	.	.	.	.	.	.	.	.	.	.
.	.	4A/	.	4a/	.	.	.	.	.	.	.	.	.	.	.	.	.	.	.	.	.	.	.	.	.	.	.
4D\	.	.	.	.	.	2ffn\	.	2D/	ho-	.	2A\	ho-	.	2f\	ho-	.	2ff\	ho-	.	.	.	.	.	.	.	2ff\	.
.	.	4A/	.	4a/	.	.	.	.	.	.	.	.	.	.	.	.	.	.	.	.	.	.	.	.	.	.	.
4F\	.	.	.	.	.	.	.	.	.	.	.	.	.	.	.	.	.	.	.	.	.	.	.	.	.	.	.
.	.	[8A/	.	[8a/	.	.	.	.	.	.	.	.	.	.	.	.	.	.	.	.	.	.	.	.	.	.	.
=44	=44	=44	=44	=44	=44	=44	=44	=44	=44	=44	=44	=44	=44	=44	=44	=44	=44	=44	=44	=44	=44	=44	=44	=44	=44	=44	=44
!	!	!	!	!	!	!LO:SIC:v:s=2cc#\	!	!	!	!	!LO:LB:g=original	!	!	!	!	!	!	!	!	!	!	!	!	!	!	!	!
4A\	.	8A/]	.	8a/]	.	2cc\	.	4.A\	-mi-	.	4.A\	-mi-	.	4.e\	-mi-	.	4.cc#X\	-mi-	.	.	.	.	.	2a\	.	2cc#X\	.
.	.	4A/	.	4a/	.	.	.	.	.	.	.	.	.	.	.	.	.	.	.	.	.	.	.	.	.	.	.
4G\	.	.	.	.	.	.	.	.	.	.	.	.	.	.	.	.	.	.	.	.	.	.	.	.	.	.	.
.	.	4A/	.	4a/	.	.	.	8G\	-ni-	.	8A\	-ni-	.	8e\	-ni-	.	8cc#\	-ni-	.	.	.	.	.	.	.	.	.
4F\	.	.	.	.	.	2dd\	.	4F\	-b(us).	.	2A\	-bus	.	4f\	-bus.	.	4dd\	-bus	.	.	.	.	.	4a\	.	4dd\	.
.	.	4A/	.	4a/	.	.	.	.	.	.	.	.	.	.	.	.	.	.	.	.	.	.	.	.	.	.	.
!	!	!	!	!	!	!	!	!LO:TX:b:t=verte.	!	!	!	!	!	!	!	!	!	!	!	!	!	!	!	!	!	!	!
4E\	.	.	.	.	.	.	.	4r	.	.	.	.	.	4r	.	.	4r	.	.	.	.	.	.	4g\	.	4r	.
.	.	[8A/	.	[8a/	.	.	.	.	.	.	.	.	.	.	.	.	.	.	.	.	.	.	.	.	.	.	.
=45	=45	=45	=45	=45	=45	=45	=45	=45	=45	=45	=45	=45	=45	=45	=45	=45	=45	=45	=45	=45	=45	=45	=45	=45	=45	=45	=45
!	!	!	!	!	!	!	!	!LO:PB:g=original	!	!	!	!	!	!LO:PB:g=original	!	!	!	!	!	!	!	!	!	!	!	!	!
4D\	.	4A/]	.	4a/]	.	2ff\	.	2r	.	.	2r	.	.	2r	.	.	2ff\	Et	.	1r	.	1r	.	4f/	.	1r	.
4r	.	4r	.	4r	.	.	.	.	.	.	.	.	.	.	.	.	.	.	.	.	.	.	.	4r	.	.	.
2F\	.	2r	.	2a/	.	2dd\	.	2F\	In	.	2A\	in	.	2f\	In	.	2dd\	in	.	.	.	.	.	2r	.	.	.
=46	=46	=46	=46	=46	=46	=46	=46	=46	=46	=46	=46	=46	=46	=46	=46	=46	=46	=46	=46	=46	=46	=46	=46	=46	=46	=46	=46
!	!	!	!	!	!	!	!	!	!	!	!	!	!	!	!	!	!	!	!	!	!LO:DY:a:t=p&colon;:rj	!	!LO:DY:a:t=p&colon;:rj	!	!	!	!
4G\	.	8G/	.	8g/	.	2b\	.	4G\	ter-	.	2G/	ter-	.	2d\	ter-	.	2b\	ter-	.	4g/	p	4g/	p	1g	.	2b\	.
.	.	4G/	.	4g/	.	.	.	.	.	.	.	.	.	.	.	.	.	.	.	.	.	.	.	.	.	.	.
4F\	.	.	.	.	.	.	.	4F\	.	.	.	.	.	.	.	.	.	.	.	4r	.	4r	.	.	.	.	.
.	.	4G/	.	4g/	.	.	.	.	.	.	.	.	.	.	.	.	.	.	.	.	.	.	.	.	.	.	.
4E\	.	.	.	.	.	2cc\	.	4E\	-ra	.	2G/	-ra	.	2e\	-ra	.	2ccn\	-ra	.	2r	.	2r	.	.	.	2ccn\	.
.	.	4G/	.	4g/	.	.	.	.	.	.	.	.	.	.	.	.	.	.	.	.	.	.	.	.	.	.	.
4C/	.	.	.	.	.	.	.	4C/	.	.	.	.	.	.	.	.	.	.	.	.	.	.	.	.	.	.	.
.	.	[8G/	.	[8g/	.	.	.	.	.	.	.	.	.	.	.	.	.	.	.	.	.	.	.	.	.	.	.
=47	=47	=47	=47	=47	=47	=47	=47	=47	=47	=47	=47	=47	=47	=47	=47	=47	=47	=47	=47	=47	=47	=47	=47	=47	=47	=47	=47
*custos:AAA	*	*	*	*	*	*	*	*	*	*	*	*	*	*	*	*	*	*	*	*	*	*	*	*	*	*	*
4BB/	.	8G/]	.	8g/]	.	2dd\	.	2BB/	pax	.	2G/	pax	.	2f\	pax	.	2dd\	pax	.	4g/	.	4g/	.	1g	.	2dd\	.
.	.	4G/	.	4g/	.	.	.	.	.	.	.	.	.	.	.	.	.	.	.	.	.	.	.	.	.	.	.
!LO:LB:g=original	!	!	!	!	!	!	!	!	!	!	!	!	!	!	!	!	!	!	!	!	!	!	!	!	!	!	!
4GG/	.	.	.	.	.	.	.	.	.	.	.	.	.	.	.	.	.	.	.	4r	.	4r	.	.	.	.	.
.	.	4G/	.	4g/	.	.	.	.	.	.	.	.	.	.	.	.	.	.	.	.	.	.	.	.	.	.	.
4C/	.	.	.	.	.	2ee\	.	2C/	ho-	.	2G/	ho-	.	2e\	ho-	.	2ee\	ho-	.	2r	.	2r	.	.	.	2ee\	.
.	.	4G/	.	4g/	.	.	.	.	.	.	.	.	.	.	.	.	.	.	.	.	.	.	.	.	.	.	.
4E/	.	.	.	.	.	.	.	.	.	.	.	.	.	.	.	.	.	.	.	.	.	.	.	.	.	.	.
.	.	[8G/	.	[8g/	.	.	.	.	.	.	.	.	.	.	.	.	.	.	.	.	.	.	.	.	.	.	.
=48	=48	=48	=48	=48	=48	=48	=48	=48	=48	=48	=48	=48	=48	=48	=48	=48	=48	=48	=48	=48	=48	=48	=48	=48	=48	=48	=48
!	!	!	!	!	!	!	!	!	!	!	!	!	!	!	!	!	!	!	!	!	!	!	!	!	!	!LO:LB:g=original	!
4G\	.	8G/]	.	8g/]	.	2b\	.	4.G\	-mi-	.	4.G/	-mi-	.	4.d\	-mi-	.	4.b\	-mi-	.	4g/	.	4g/	.	1g	.	2b\	.
.	.	4G/	.	4g/	.	.	.	.	.	.	.	.	.	.	.	.	.	.	.	.	.	.	.	.	.	.	.
4F\	.	.	.	.	.	.	.	.	.	.	.	.	.	.	.	.	.	.	.	4r	.	4r	.	.	.	.	.
.	.	4G/	.	4g/	.	.	.	8F\	-ni-	.	8G/	-ni-	.	8d\	-ni-	.	8b\	-ni-	.	.	.	.	.	.	.	.	.
!	!	!	!	!	!	!	!	!	!	!	!	!	!	!	!	!	!	!	!	!	!	!LO:LB:g=original	!	!	!	!	!
4E\	.	.	.	.	.	2cc\	.	4E\	-bus	.	2G/	-bus	.	4e\	-bus	.	2cc\	-bus	.	2r	.	2r	.	.	.	2cc\	.
.	.	4G/	.	4g/	.	.	.	.	.	.	.	.	.	.	.	.	.	.	.	.	.	.	.	.	.	.	.
4C/	.	.	.	.	.	.	.	4r	.	.	.	.	.	4r	.	.	.	.	.	.	.	.	.	.	.	.	.
.	.	[8G/	.	8g/	.	.	.	.	.	.	.	.	.	.	.	.	.	.	.	.	.	.	.	.	.	.	.
=49	=49	=49	=49	=49	=49	=49	=49	=49	=49	=49	=49	=49	=49	=49	=49	=49	=49	=49	=49	=49	=49	=49	=49	=49	=49	=49	=49
!	!	!	!	!	!	!LO:LB:g=original	!	!	!	!	!	!	!	!	!	!	!	!	!	!	!	!	!	!	!	!	!
4BB/	.	8G/]	.	8g/	.	8dd\	.	1BB	bo-	.	1d	bo-	.	1g	bo-	.	1dd	bo-	.	4g/	.	4dd\	.	1g	.	1dd	.
.	.	4G/	.	4g/	.	4dd\	.	.	.	.	.	.	.	.	.	.	.	.	.	.	.	.	.	.	.	.	.
4D/	.	.	.	.	.	.	.	.	.	.	.	.	.	.	.	.	.	.	.	4r	.	4r	.	.	.	.	.
.	.	4G/	.	4g/	.	4dd\	.	.	.	.	.	.	.	.	.	.	.	.	.	.	.	.	.	.	.	.	.
4BB/	.	.	.	.	.	.	.	.	.	.	.	.	.	.	.	.	.	.	.	2r	.	2r	.	.	.	.	.
.	.	4G/	.	4g/	.	4dd\	.	.	.	.	.	.	.	.	.	.	.	.	.	.	.	.	.	.	.	.	.
4GG/	.	.	.	.	.	.	.	.	.	.	.	.	.	.	.	.	.	.	.	.	.	.	.	.	.	.	.
.	.	[8G/	.	8g/	.	8dd\	.	.	.	.	.	.	.	.	.	.	.	.	.	.	.	.	.	.	.	.	.
=50	=50	=50	=50	=50	=50	=50	=50	=50	=50	=50	=50	=50	=50	=50	=50	=50	=50	=50	=50	=50	=50	=50	=50	=50	=50	=50	=50
4C/	.	8G/]	.	8g/	.	8ee\	.	1C	-nae	.	1c	-nae	.	1g	-nae	.	1ee	-nae	.	4cc\	.	4ee\	.	1g	.	1ee	.
.	.	4G/	.	4g/	.	4ee\	.	.	.	.	.	.	.	.	.	.	.	.	.	.	.	.	.	.	.	.	.
4c\	.	.	.	.	.	.	.	.	.	.	.	.	.	.	.	.	.	.	.	4r	.	4r	.	.	.	.	.
.	.	4G/	.	4g/	.	4ee\	.	.	.	.	.	.	.	.	.	.	.	.	.	.	.	.	.	.	.	.	.
4G\	.	.	.	.	.	.	.	.	.	.	.	.	.	.	.	.	.	.	.	2r	.	2r	.	.	.	.	.
.	.	4G/	.	4g/	.	4ee\	.	.	.	.	.	.	.	.	.	.	.	.	.	.	.	.	.	.	.	.	.
4E\	.	.	.	.	.	.	.	.	.	.	.	.	.	.	.	.	.	.	.	.	.	.	.	.	.	.	.
.	.	[8G/	.	8g/	.	8ee\	.	.	.	.	.	.	.	.	.	.	.	.	.	.	.	.	.	.	.	.	.
=51	=51	=51	=51	=51	=51	=51	=51	=51	=51	=51	=51	=51	=51	=51	=51	=51	=51	=51	=51	=51	=51	=51	=51	=51	=51	=51	=51
!	!	!	!	!LO:LB:g=original	!	!	!	!	!	!	!	!	!	!	!	!	!	!	!	!	!	!	!	!	!	!	!
4C/	.	8G/]	.	8g/	.	4ee\	.	4C/	vo-	.	4c\	vo-	.	4g\	vo-	.	4ee\	vo-	.	4cc\	.	4ee\	.	1g	.	4ee\	.
.	.	4G/	.	4g/	.	.	.	.	.	.	.	.	.	.	.	.	.	.	.	.	.	.	.	.	.	.	.
.	.	.	.	.	.	8qff/	.	.	.	.	.	.	.	.	.	.	.	.	.	.	.	.	.	.	.	.	.
4c\	.	.	.	.	.	8ee\L	.	4C/	-lun-	.	4c\	-lun-	.	4g\	-lun-	.	4ee\	-lun-	.	4r	.	4r	.	.	.	4ee\	.
.	.	4G/	.	4g/	.	16dd\L	.	.	.	.	.	.	.	.	.	.	.	.	.	.	.	.	.	.	.	.	.
.	.	.	.	.	.	16ee\JJ	.	.	.	.	.	.	.	.	.	.	.	.	.	.	.	.	.	.	.	.	.
4B\	.	.	.	.	.	4ff\	.	4BB/	-ta-	.	(4d\	-ta-	.	2g\	-ta-	.	(>4ff\	-ta-	.	4dd\	.	4ff\	.	.	.	4ff\	.
.	.	4G/	.	4g/	.	.	.	.	.	.	.	.	.	.	.	.	.	.	.	.	.	.	.	.	.	.	.
4c\	.	.	.	.	.	4ee\	.	4C/	.	.	4c\)	.	.	.	.	.	4ee\)	.	.	4cc\	.	4ee\	.	.	.	4ee\	.
.	.	[8G/	.	8g/	.	.	.	.	.	.	.	.	.	.	.	.	.	.	.	.	.	.	.	.	.	.	.
=52	=52	=52	=52	=52	=52	=52	=52	=52	=52	=52	=52	=52	=52	=52	=52	=52	=52	=52	=52	=52	=52	=52	=52	=52	=52	=52	=52
4G\	.	4G/]	.	4g/	.	4dd\	.	4GG/	-tis	.	4B\	-tis	.	4g\	-tis	.	4dd\	-tis.	.	4g/	.	4dd\	.	4g/	.	4dd\	.
!	!LO:DY:a:t=f.	!	!LO:DY:a:t=for&colon;	!	!	!	!	!	!	!	!	!	!	!	!	!	!	!	!	!	!	!	!	!	!	!	!
8G\L	f	8g\L	f	4r	.	4r	.	4r	.	.	4r	.	.	4r	.	.	4r	.	.	4r	.	4r	.	4r	.	4r	.
8A\J	.	8a\J	.	.	.	.	.	.	.	.	.	.	.	.	.	.	.	.	.	.	.	.	.	.	.	.	.
!	!	!	!	!	!	!	!	!	!	!LO:DY:a:t=for&colon;	!	!	!	!	!	!	!	!	!	!	!	!	!	!	!LO:DY:a:t=for&colon;	!	!
!	!	!	!	!	!	!	!	!	!	!LO:MO:mod=.	!	!	!	!	!	!	!	!	!	!	!	!	!	!	!LO:MO:mod=.	!	!
8G\L	.	8g\L	.	2r	.	2r	.	2r	.	f	2r	.	.	2r	.	.	2r	.	.	2r	.	2r	.	2r	f	2r	.
8F\	.	8f\	.	.	.	.	.	.	.	.	.	.	.	.	.	.	.	.	.	.	.	.	.	.	.	.	.
8E\	.	8e\	.	.	.	.	.	.	.	.	.	.	.	.	.	.	.	.	.	.	.	.	.	.	.	.	.
*	*	*custos:c	*	*	*	*	*	*	*	*	*	*	*	*	*	*	*	*	*	*	*	*	*	*	*	*	*
8D\J	.	8d\J	.	.	.	.	.	.	.	.	.	.	.	.	.	.	.	.	.	.	.	.	.	.	.	.	.
=53	=53	=53	=53	=53	=53	=53	=53	=53	=53	=53	=53	=53	=53	=53	=53	=53	=53	=53	=53	=53	=53	=53	=53	=53	=53	=53	=53
!	!LO:MO:null:mod=f	!LO:LB:g=original	!LO:MO:null:mod=f	!	!LO:DY:a:t=for&colon;	!	!LO:DY:a:t=for&colon;:rj	!	!	!LO:MO:null:mod=f	!	!	!LO:DY:a:t=f.:rj	!	!	!LO:DY:a:t=f&colon;:rj	!LO:LB:g=original	!	!LO:DY:a:t=f&colon;:rj	!LO:LB:g=original	!LO:DY:a:t=for&colon;	!	!LO:DY:a:t=for&colon;:rj	!	!LO:MO:null:mod=f	!	!LO:DY:a:t=for&colon;:rj
4C/	.	4c/	.	4G/ 4e	f	4e/ 4cc	f	2.c\	Glo-	.	2.e\	Glo-	f	2.g\	Glo-	f	2.cc\	Glo-	f	4e/	f	4cc\	f	4cc\	.	4ee\	f
*	*	*	*	*	*	*	*	*	*	*	*	*	*	*	*	*	*	*	*	*	*	*	*	*custos:cc	*	*	*
4c\	.	4cc\	.	4G/ 4e	.	16cc\LL	.	.	.	.	.	.	.	.	.	.	.	.	.	4e/	.	8cc\L	.	4cc\	.	4ee\	.
.	.	.	.	.	.	16dd\	.	.	.	.	.	.	.	.	.	.	.	.	.	.	.	.	.	.	.	.	.
.	.	.	.	.	.	16ee\	.	.	.	.	.	.	.	.	.	.	.	.	.	.	.	8cc\J	.	.	.	.	.
.	.	.	.	.	.	16dd\JJ	.	.	.	.	.	.	.	.	.	.	.	.	.	.	.	.	.	.	.	.	.
!	!	!	!	!	!	!	!	!	!	!	!	!	!	!	!	!	!	!	!	!	!	!	!	!LO:LB:g=original	!	!	!
4G\	.	4g\	.	4G/ 4e	.	4cc\	.	.	.	.	.	.	.	.	.	.	.	.	.	4e/	.	4cc\	.	4cc\	.	4ee\	.
4E\	.	4e\	.	4G/ 4e	.	4r	.	4C/	-ri-	.	4e\	-ri-	.	4g\	-ri-	.	4cc\	-ri-	.	4e/	.	4cc\	.	4cc\	.	4ee\	.
=54	=54	=54	=54	=54	=54	=54	=54	=54	=54	=54	=54	=54	=54	=54	=54	=54	=54	=54	=54	=54	=54	=54	=54	=54	=54	=54	=54
!	!LO:DY:a:t=p&colon;	!	!LO:DY:a:t=pia&colon;	!	!LO:DY:a:t=p&colon;	!	!	!	!	!	!	!	!	!	!	!	!	!	!	!	!	!	!	!	!	!	!
2C/	p	2c\	p	2e/	p	4r	.	4C/	-a	.	4e\	-a	.	4g\	-a	.	4cc\	-a	.	4e/	.	4cc\	.	4cc\	.	4ee\	.
!	!	!	!	!	!	!	!LO:DY:a:t=pia&colon;:rj	!	!	!	!	!	!	!	!	!	!	!	!	!	!	!	!	!	!	!	!
.	.	.	.	.	.	4gg\	p	4r	.	.	4r	.	.	4r	.	.	4r	.	.	4r	.	4r	.	4r	.	4r	.
2E\	.	2c\	.	2g/	.	4ee\	.	2r	.	.	2r	.	.	2r	.	.	2r	.	.	2r	.	2r	.	2r	.	2r	.
.	.	.	.	.	.	4b-X\	.	.	.	.	.	.	.	.	.	.	.	.	.	.	.	.	.	.	.	.	.
=55	=55	=55	=55	=55	=55	=55	=55	=55	=55	=55	=55	=55	=55	=55	=55	=55	=55	=55	=55	=55	=55	=55	=55	=55	=55	=55	=55
!	!	!	!	!	!	!	!	!	!	!	!	!	!	!	!	!	!LO:TX:a:t=1:mod=	!	!	!	!	!	!	!	!LO:DY:a:t=p&colon;	!	!LO:DY:a:t=p&colon;
!	!	!	!	!	!	!	!	!	!	!	!	!	!	!	!	!	!	!	!	!	!	!	!	!	!LO:MO:mod=.	!	!LO:MO:mod=.
2F\	.	2c\	.	4c/	.	4a/	.	1r	.	.	1r	.	.	1r	.	.	1r	.	.	1r	.	1r	.	4r	p	4r	p
!	!	!	!	!	!	!	!	!	!	!	!	!	!	!	!	!	!	!	!	!	!	!	!	!	!LO:MO:null:mod=p	!	!LO:MO:null:mod=p
.	.	.	.	4a/	.	4ff\	.	.	.	.	.	.	.	.	.	.	.	.	.	.	.	.	.	4a/	.	4ff\	.
2G\	.	2f\	.	4f/	.	4dd\	.	.	.	.	.	.	.	.	.	.	.	.	.	.	.	.	.	4f/	.	4dd\	.
.	.	.	.	4d/	.	4bn\	.	.	.	.	.	.	.	.	.	.	.	.	.	.	.	.	.	4d/	.	4b\	.
=56	=56	=56	=56	=56	=56	=56	=56	=56	=56	=56	=56	=56	=56	=56	=56	=56	=56	=56	=56	=56	=56	=56	=56	=56	=56	=56	=56
!	!	!	!	!	!	!	!	!	!LO:MO:mod=*	!	!	!	!	!	!	!	!	!	!	!	!	!	!	!	!	!	!
*	*	*	*	*	*	*	*	*	*ij	*	*	*	*	*	*	*	*	*	*	*	*	*	*	*	*	*	*
!	!LO:DY:a:t=f&colon;	!	!LO:DY:a:t=f.:rj	!	!LO:DY:a:t=for&colon;	!	!LO:DY:a:t=for&colon;	!	!	!	!LO:LB:g=original	!	!	!	!	!	!	!	!	!	!	!	!	!	!LO:DY:a:t=for&colon;	!	!LO:DY:a:t=for&colon;
4C/	f	4e\	f	4G/ 4e	f	4e/ 4cc	f	2.C/	Glo-	.	2.e\	Glo-	.	2.g\	Glo-	.	2.cc\	Glo-	.	4e/	.	4cc\	.	4e/	f	4cc\	f
4c\	.	4cc\	.	4G/ 4e	.	16cc\LL	.	.	.	.	.	.	.	.	.	.	.	.	.	4e/	.	8cc\L	.	4cc\	.	4ee\	.
.	.	.	.	.	.	16dd\	.	.	.	.	.	.	.	.	.	.	.	.	.	.	.	.	.	.	.	.	.
.	.	.	.	.	.	16ee\	.	.	.	.	.	.	.	.	.	.	.	.	.	.	.	8cc\J	.	.	.	.	.
.	.	.	.	.	.	16dd\JJ	.	.	.	.	.	.	.	.	.	.	.	.	.	.	.	.	.	.	.	.	.
4G\	.	4g\	.	4G/ 4e	.	4cc\	.	.	.	.	.	.	.	.	.	.	.	.	.	4e/	.	4g/	.	4cc\	.	4ee\	.
4E\	.	4e\	.	4G/ 4e	.	4r	.	4C/	-ri-	.	4e\	-ri-	.	4g\	-ri-	.	4cc\	-ri-	.	4e/	.	4e/	.	4cc\	.	4ee\	.
=57	=57	=57	=57	=57	=57	=57	=57	=57	=57	=57	=57	=57	=57	=57	=57	=57	=57	=57	=57	=57	=57	=57	=57	=57	=57	=57	=57
!LO:LB:g=original	!LO:DY:a:t=p&colon;	!	!LO:DY:a:t=pia&colon;	!	!LO:DY:a:t=p&colon;	!	!LO:DY:a:t=p&colon;	!	!	!	!	!	!	!LO:LB:g=original	!	!	!	!	!	!	!	!	!	!	!	!	!
2C/	p	2c\	p	2e/	p	4r	p	4C/	-a	.	4e\	-a	.	4g\	-a	.	4cc\	-a	.	4e/	.	4c/	.	4cc\	.	4ee\	.
*	*	*	*	*	*	*	*	*	*Xij	*	*	*	*	*	*	*	*	*	*	*	*	*	*	*	*	*	*
.	.	.	.	.	.	4gg\	.	4r	.	.	4r	.	.	4r	.	.	4r	.	.	4r	.	4r	.	4r	.	4r	.
2E\	.	2c\	.	2g/	.	4ee\	.	2r	.	.	2r	.	.	2r	.	.	2r	.	.	2r	.	2r	.	2r	.	2r	.
.	.	.	.	.	.	4b-X\	.	.	.	.	.	.	.	.	.	.	.	.	.	.	.	.	.	.	.	.	.
=58	=58	=58	=58	=58	=58	=58	=58	=58	=58	=58	=58	=58	=58	=58	=58	=58	=58	=58	=58	=58	=58	=58	=58	=58	=58	=58	=58
!	!	!	!	!	!	!	!	!LO:TX:t=P:problem=brak taktu	!	!	!	!	!	!	!	!	!	!	!	!	!	!	!	!	!	!	!
2F\	.	2c\	.	4c/	.	4a\	.	1ryy	.	.	1r	.	.	1r	.	.	1r	.	.	1r	.	1r	.	4r	.	4r	.
!	!	!	!	!	!	!	!	!	!	!	!	!	!	!	!	!	!	!	!	!	!	!	!	!	!LO:DY:a:t=p&colon;	!	!LO:DY:a:t=pia&colon;:rj
.	.	.	.	4a/	.	4ff\	.	.	.	.	.	.	.	.	.	.	.	.	.	.	.	.	.	4a/	p	4ff\	p
2G\	.	2f\	.	4f/	.	4dd\	.	.	.	.	.	.	.	.	.	.	.	.	.	.	.	.	.	4f/	.	4dd\	.
.	.	.	.	4d/	.	4bn\	.	.	.	.	.	.	.	.	.	.	.	.	.	.	.	.	.	4d/	.	4b\	.
=59	=59	=59	=59	=59	=59	=59	=59	=59	=59	=59	=59	=59	=59	=59	=59	=59	=59	=59	=59	=59	=59	=59	=59	=59	=59	=59	=59
*	*	*tremolo	*	*	*	*	*	*	*	*	*	*	*	*	*	*	*	*	*	*	*	*	*	*	*	*	*
!	!LO:DY:a:t=f&colon;	!	!LO:DY:a:t=for&colon;	!	!LO:MO:null:mod=f	!LO:PB:g=original	!LO:DY:a:t=for&colon;	!LO:LB:g=original	!	!	!	!	!	!	!	!	!	!	!	!	!	!	!	!	!LO:DY:a:t=for.	!	!LO:DY:a:t=for&colon;
8E\L	f	8e\L	f	16g/LL	.	4.cc\	f	2c\	in	.	2e\	in	.	2g\	in	.	2cc\	in	.	4e/	.	4cc\	.	4e/	f	4.cc\	f
.	.	.	.	16g/	.	.	.	.	.	.	.	.	.	.	.	.	.	.	.	.	.	.	.	.	.	.	.
8GG\	.	8e\	.	16g/	.	.	.	.	.	.	.	.	.	.	.	.	.	.	.	.	.	.	.	.	.	.	.
.	.	.	.	16g/JJ	.	.	.	.	.	.	.	.	.	.	.	.	.	.	.	.	.	.	.	.	.	.	.
*	*	*	*	*tremolo	*	*	*	*	*	*	*	*	*	*	*	*	*	*	*	*	*	*	*	*	*	*	*
8C\	.	8e\	.	16g/LL	.	.	.	.	.	.	.	.	.	.	.	.	.	.	.	8g/L	.	8cc\L	.	4g/	.	.	.
.	.	.	.	16g/	.	.	.	.	.	.	.	.	.	.	.	.	.	.	.	.	.	.	.	.	.	.	.
8GG\J	.	8e\J	.	16g/	.	16dd\LL	.	.	.	.	.	.	.	.	.	.	.	.	.	8g/J	.	8cc\J	.	.	.	8ee\	.
.	.	.	.	16g/JJ	.	16ee\JJ	.	.	.	.	.	.	.	.	.	.	.	.	.	.	.	.	.	.	.	.	.
8BB/L	.	8d\L	.	16g/LL	.	4dd\	.	2B\	ex-	.	2d\	ex-	.	2g\	ex-	.	2dd\	ex-	.	4g/	.	4dd\	.	4g/	.	4dd\	.
.	.	.	.	16g/	.	.	.	.	.	.	.	.	.	.	.	.	.	.	.	.	.	.	.	.	.	.	.
8GG/	.	8d\	.	16g/	.	.	.	.	.	.	.	.	.	.	.	.	.	.	.	.	.	.	.	.	.	.	.
.	.	.	.	16g/	.	.	.	.	.	.	.	.	.	.	.	.	.	.	.	.	.	.	.	.	.	.	.
8BB/	.	8d\	.	16g/	.	4r	.	.	.	.	.	.	.	.	.	.	.	.	.	4g/	.	4dd\	.	4g/	.	4dd\	.
.	.	.	.	16g/	.	.	.	.	.	.	.	.	.	.	.	.	.	.	.	.	.	.	.	.	.	.	.
8GG/J	.	8d\J	.	16g/	.	.	.	.	.	.	.	.	.	.	.	.	.	.	.	.	.	.	.	.	.	.	.
.	.	.	.	16g/JJ	.	.	.	.	.	.	.	.	.	.	.	.	.	.	.	.	.	.	.	.	.	.	.
=60	=60	=60	=60	=60	=60	=60	=60	=60	=60	=60	=60	=60	=60	=60	=60	=60	=60	=60	=60	=60	=60	=60	=60	=60	=60	=60	=60
8BB/L	.	8d\L	.	16g/LL	.	4.dd\	.	2B\	-cel-	.	2d\	-cel-	.	2g\	-cel-	.	2dd\	-cel-	.	4g/	.	4dd\	.	2g/	.	4.dd\	.
.	.	.	.	16g/	.	.	.	.	.	.	.	.	.	.	.	.	.	.	.	.	.	.	.	.	.	.	.
8GG/	.	8d\	.	16g/	.	.	.	.	.	.	.	.	.	.	.	.	.	.	.	.	.	.	.	.	.	.	.
.	.	.	.	16g/	.	.	.	.	.	.	.	.	.	.	.	.	.	.	.	.	.	.	.	.	.	.	.
8BB/	.	8d\	.	16g/	.	.	.	.	.	.	.	.	.	.	.	.	.	.	.	8g/L	.	8dd\L	.	.	.	.	.
.	.	.	.	16g/	.	.	.	.	.	.	.	.	.	.	.	.	.	.	.	.	.	.	.	.	.	.	.
8GG/J	.	8d\J	.	16g/	.	16ee\LL	.	.	.	.	.	.	.	.	.	.	.	.	.	8g/J	.	8dd\J	.	.	.	8ff\	.
.	.	.	.	16g/JJ	.	16ff\JJ	.	.	.	.	.	.	.	.	.	.	.	.	.	.	.	.	.	.	.	.	.
8C/L	.	8c\L	.	16g/LL	.	4ee\	.	2c\	-ſis	.	2c\	-ſis	.	2g\	-sis	.	2ee\	-sis	.	4cc\	.	4ee\	.	2g/	.	4ee\	.
.	.	.	.	16g/	.	.	.	.	.	.	.	.	.	.	.	.	.	.	.	.	.	.	.	.	.	.	.
8GG/	.	8c\	.	16g/	.	.	.	.	.	.	.	.	.	.	.	.	.	.	.	.	.	.	.	.	.	.	.
.	.	.	.	16g/	.	.	.	.	.	.	.	.	.	.	.	.	.	.	.	.	.	.	.	.	.	.	.
8C/	.	8c\	.	16g/	.	4r	.	.	.	.	.	.	.	.	.	.	.	.	.	4cc\	.	4ee\	.	.	.	4ee\	.
.	.	.	.	16g/	.	.	.	.	.	.	.	.	.	.	.	.	.	.	.	.	.	.	.	.	.	.	.
8GG/J	.	8c\J	.	16g/	.	.	.	.	.	.	.	.	.	.	.	.	.	.	.	.	.	.	.	.	.	.	.
.	.	.	.	16g/JJ	.	.	.	.	.	.	.	.	.	.	.	.	.	.	.	.	.	.	.	.	.	.	.
=61	=61	=61	=61	=61	=61	=61	=61	=61	=61	=61	=61	=61	=61	=61	=61	=61	=61	=61	=61	=61	=61	=61	=61	=61	=61	=61	=61
!	!	!	!	!	!	!	!	!	!LO:MO:mod=*	!	!	!LO:MO:mod=*	!	!	!LO:MO:mod=*	!	!	!	!	!	!	!	!	!	!	!	!
*	*	*	*	*	*	*	*	*	*ij	*	*	*ij	*	*	*ij	*	*	*	*	*	*	*	*	*	*	*	*
!LO:TX:t=P:problem=mixed beam	!	!	!	!	!	!	!	!	!	!	!	!	!	!	!	!	!	!	!	!	!	!	!	!	!	!	!
8E\L	.	8e\L	.	16g/LL	.	4.cc\	.	2C/	in	.	2e\	in	.	2g\	in	.	2cc\	in	.	2c/	.	2cc\	.	2g/	.	4.cc\	.
.	.	.	.	16g/	.	.	.	.	.	.	.	.	.	.	.	.	.	.	.	.	.	.	.	.	.	.	.
8GG/	.	8e\	.	16g/	.	.	.	.	.	.	.	.	.	.	.	.	.	.	.	.	.	.	.	.	.	.	.
.	.	.	.	16g/	.	.	.	.	.	.	.	.	.	.	.	.	.	.	.	.	.	.	.	.	.	.	.
8C/	.	8e\	.	16g/	.	.	.	.	.	.	.	.	.	.	.	.	.	.	.	.	.	.	.	.	.	.	.
.	.	.	.	16g/	.	.	.	.	.	.	.	.	.	.	.	.	.	.	.	.	.	.	.	.	.	.	.
8GG/J	.	8e\J	.	16g/	.	16dd\LL	.	.	.	.	.	.	.	.	.	.	.	.	.	.	.	.	.	.	.	8ee\	.
.	.	.	.	16g/JJ	.	16ee\JJ	.	.	.	.	.	.	.	.	.	.	.	.	.	.	.	.	.	.	.	.	.
8BB/L	.	8d\L	.	16g/LL	.	4dd\	.	2BB/	ex-	.	2d\	ex-	.	2g\	ex-	.	2dd\	ex-	.	2g/	.	2dd\	.	2g/	.	4dd\	.
.	.	.	.	16g/	.	.	.	.	.	.	.	.	.	.	.	.	.	.	.	.	.	.	.	.	.	.	.
8GG/	.	8d\	.	16g/	.	.	.	.	.	.	.	.	.	.	.	.	.	.	.	.	.	.	.	.	.	.	.
.	.	.	.	16g/	.	.	.	.	.	.	.	.	.	.	.	.	.	.	.	.	.	.	.	.	.	.	.
*	*	*	*	*	*	*	*	*	*	*	*	*	*	*	*	*	*	*	*	*	*	*	*	*	*	*custos:dd	*
8BB/	.	8d\	.	16g/	.	4r	.	.	.	.	.	.	.	.	.	.	.	.	.	.	.	.	.	.	.	4dd\	.
.	.	.	.	16g/	.	.	.	.	.	.	.	.	.	.	.	.	.	.	.	.	.	.	.	.	.	.	.
8GG/J	.	8d\J	.	16g/	.	.	.	.	.	.	.	.	.	.	.	.	.	.	.	.	.	.	.	.	.	.	.
.	.	.	.	16g/JJ	.	.	.	.	.	.	.	.	.	.	.	.	.	.	.	.	.	.	.	.	.	.	.
=62	=62	=62	=62	=62	=62	=62	=62	=62	=62	=62	=62	=62	=62	=62	=62	=62	=62	=62	=62	=62	=62	=62	=62	=62	=62	=62	=62
!	!	!	!	!	!	!	!	!	!	!	!	!	!	!	!	!	!	!	!	!	!	!	!	!	!	!LO:LB:g=original	!
8BB/L	.	8d\L	.	16g/LL	.	4.dd\	.	2BB/	-cel-	.	2d\	-cel-	.	2g\	-cel-	.	2dd\	-cel-	.	2g/	.	2dd\	.	2g/	.	4.dd\	.
.	.	.	.	16g/	.	.	.	.	.	.	.	.	.	.	.	.	.	.	.	.	.	.	.	.	.	.	.
8GG/	.	8d\	.	16g/	.	.	.	.	.	.	.	.	.	.	.	.	.	.	.	.	.	.	.	.	.	.	.
.	.	.	.	16g/	.	.	.	.	.	.	.	.	.	.	.	.	.	.	.	.	.	.	.	.	.	.	.
8BB/	.	8d\	.	16g/	.	.	.	.	.	.	.	.	.	.	.	.	.	.	.	.	.	.	.	.	.	.	.
.	.	.	.	16g/	.	.	.	.	.	.	.	.	.	.	.	.	.	.	.	.	.	.	.	.	.	.	.
8GG/J	.	8d\J	.	16g/	.	16ee\LL	.	.	.	.	.	.	.	.	.	.	.	.	.	.	.	.	.	.	.	8ff\	.
.	.	.	.	16g/JJ	.	16ff\JJ	.	.	.	.	.	.	.	.	.	.	.	.	.	.	.	.	.	.	.	.	.
!LO:MO:mod=!null:null	!	!	!	!	!	!	!	!	!	!	!	!	!	!	!	!	!	!	!	!	!	!	!	!	!	!	!
!LO:TX:a:t=c	!	!	!	!	!	!	!	!	!	!	!	!	!	!	!	!	!	!	!	!	!	!LO:LB:g=original	!	!	!	!	!
8C/L	.	8c\L	.	16g/LL	.	4ee\	.	2C/	-ſis	.	2c\	-ſis	.	2g\	-sis	.	2ee\	-sis	.	2cc\	.	2ee\	.	2g/	.	4ee\	.
.	.	.	.	16g/	.	.	.	.	.	.	.	.	.	.	.	.	.	.	.	.	.	.	.	.	.	.	.
8GG/	.	8c\	.	16g/	.	.	.	.	.	.	.	.	.	.	.	.	.	.	.	.	.	.	.	.	.	.	.
.	.	.	.	16g/	.	.	.	.	.	.	.	.	.	.	.	.	.	.	.	.	.	.	.	.	.	.	.
8C/	.	8c\	.	16g/	.	4r	.	.	.	.	.	.	.	.	.	.	.	.	.	.	.	.	.	.	.	4ee\	.
.	.	.	.	16g/	.	.	.	.	.	.	.	.	.	.	.	.	.	.	.	.	.	.	.	.	.	.	.
8GG/J	.	8c\J	.	16g/	.	.	.	.	.	.	.	.	.	.	.	.	.	.	.	.	.	.	.	.	.	.	.
.	.	.	.	16g/JJ	.	.	.	.	.	.	.	.	.	.	.	.	.	.	.	.	.	.	.	.	.	.	.
=63	=63	=63	=63	=63	=63	=63	=63	=63	=63	=63	=63	=63	=63	=63	=63	=63	=63	=63	=63	=63	=63	=63	=63	=63	=63	=63	=63
!	!	!	!	!LO:LB:g=original	!	!	!	!	!	!	!	!	!	!	!	!	!	!	!	!	!	!	!	!	!	!	!
8A\L	.	8a\L	.	16cc\LL	.	4.ff\	.	2F\	in	.	2c\	in	.	2a\	in	.	2cc\	in	.	4cc\	.	4cc\	.	2cc\	.	4.ff\	.
.	.	.	.	16cc\	.	.	.	.	.	.	.	.	.	.	.	.	.	.	.	.	.	.	.	.	.	.	.
8C\	.	8a\	.	16cc\	.	.	.	.	.	.	.	.	.	.	.	.	.	.	.	.	.	.	.	.	.	.	.
.	.	.	.	16cc\	.	.	.	.	.	.	.	.	.	.	.	.	.	.	.	.	.	.	.	.	.	.	.
8F\	.	8a\	.	16cc\	.	.	.	.	.	.	.	.	.	.	.	.	.	.	.	4r	.	4r	.	.	.	.	.
.	.	.	.	16cc\	.	.	.	.	.	.	.	.	.	.	.	.	.	.	.	.	.	.	.	.	.	.	.
8C\J	.	8a\J	.	16cc\	.	16gg\LL	.	.	.	.	.	.	.	.	.	.	.	.	.	.	.	.	.	.	.	8aa\	.
.	.	.	.	16cc\JJ	.	16aa\JJ	.	.	.	.	.	.	.	.	.	.	.	.	.	.	.	.	.	.	.	.	.
8E\L	.	8g\L	.	16cc\LL	.	4gg\	.	2E\	ex-	.	2c\	ex-	.	2g\	ex-	.	2cc\	ex-	.	2r	.	2r	.	2cc\	.	4gg\	.
.	.	.	.	16cc\	.	.	.	.	.	.	.	.	.	.	.	.	.	.	.	.	.	.	.	.	.	.	.
8C\	.	8g\	.	16cc\	.	.	.	.	.	.	.	.	.	.	.	.	.	.	.	.	.	.	.	.	.	.	.
.	.	.	.	16cc\	.	.	.	.	.	.	.	.	.	.	.	.	.	.	.	.	.	.	.	.	.	.	.
8E\	.	8g\	.	16cc\	.	4r	.	.	.	.	.	.	.	.	.	.	.	.	.	.	.	.	.	.	.	4gg\	.
.	.	.	.	16cc\	.	.	.	.	.	.	.	.	.	.	.	.	.	.	.	.	.	.	.	.	.	.	.
8C\J	.	8g\J	.	16cc\	.	.	.	.	.	.	.	.	.	.	.	.	.	.	.	.	.	.	.	.	.	.	.
.	.	.	.	16cc\JJ	.	.	.	.	.	.	.	.	.	.	.	.	.	.	.	.	.	.	.	.	.	.	.
=64	=64	=64	=64	=64	=64	=64	=64	=64	=64	=64	=64	=64	=64	=64	=64	=64	=64	=64	=64	=64	=64	=64	=64	=64	=64	=64	=64
8E\L	.	8g\L	.	16cc\LL	.	4.gg\	.	2E\	-cel-	.	2B-X\	-cel-	.	2g\	-cel-	.	2cc\	-cel-	.	4c/	.	4cc\	.	2cc\	.	4.gg\	.
.	.	.	.	16cc\	.	.	.	.	.	.	.	.	.	.	.	.	.	.	.	.	.	.	.	.	.	.	.
8C\	.	8g\	.	16cc\	.	.	.	.	.	.	.	.	.	.	.	.	.	.	.	.	.	.	.	.	.	.	.
.	.	.	.	16cc\	.	.	.	.	.	.	.	.	.	.	.	.	.	.	.	.	.	.	.	.	.	.	.
8E\	.	8g\	.	16cc\	.	.	.	.	.	.	.	.	.	.	.	.	.	.	.	4r	.	4r	.	.	.	.	.
.	.	.	.	16cc\	.	.	.	.	.	.	.	.	.	.	.	.	.	.	.	.	.	.	.	.	.	.	.
8C\J	.	8g\J	.	16cc\	.	16aa\LL	.	.	.	.	.	.	.	.	.	.	.	.	.	.	.	.	.	.	.	8bb-X\	.
.	.	.	.	16cc\JJ	.	16bb-X\JJ	.	.	.	.	.	.	.	.	.	.	.	.	.	.	.	.	.	.	.	.	.
*	*	*	*	*	*	*	*	*	*	*	*	*	*	*	*	*	*custos:ff	*	*	*	*	*	*	*	*	*	*
8F\L	.	8f\L	.	16cc\LL	.	4aa\	.	2F\	-ſis	.	2A\	-ſis	.	2a\	-sis	.	2cc\	-sis	.	2r	.	2r	.	2cc\	.	4aa\	.
*	*	*	*	*	*	*	*	*	*Xij	*	*	*	*	*	*	*	*	*	*	*	*	*	*	*	*	*	*
.	.	.	.	16cc\	.	.	.	.	.	.	.	.	.	.	.	.	.	.	.	.	.	.	.	.	.	.	.
8C\	.	8f\	.	16cc\	.	.	.	.	.	.	.	.	.	.	.	.	.	.	.	.	.	.	.	.	.	.	.
.	.	.	.	16cc\	.	.	.	.	.	.	.	.	.	.	.	.	.	.	.	.	.	.	.	.	.	.	.
8F\	.	8f\	.	16cc\	.	4r	.	.	.	.	.	.	.	.	.	.	.	.	.	.	.	.	.	.	.	4aa\	.
.	.	.	.	16cc\	.	.	.	.	.	.	.	.	.	.	.	.	.	.	.	.	.	.	.	.	.	.	.
8C\J	.	8f\J	.	16cc\	.	.	.	.	.	.	.	.	.	.	.	.	.	.	.	.	.	.	.	.	.	.	.
.	.	.	.	16cc\JJ	.	.	.	.	.	.	.	.	.	.	.	.	.	.	.	.	.	.	.	.	.	.	.
*	*	*Xtremolo	*	*Xtremolo	*	*	*	*	*	*	*	*	*	*	*	*	*	*	*	*	*	*	*	*	*	*	*
=65	=65	=65	=65	=65	=65	=65	=65	=65	=65	=65	=65	=65	=65	=65	=65	=65	=65	=65	=65	=65	=65	=65	=65	=65	=65	=65	=65
*	*	*	*	*^	*	*^	*	*	*	*	*	*	*	*	*	*	*	*	*	*	*	*	*	*	*	*	*
!	!	!	!	!	!	!	!	!	!	!	!	!	!	!	!	!	!	!	!	!LO:MO:mod=*	!	!	!	!	!	!	!	!	!
*	*	*	*	*	*	*	*	*	*	*	*	*	*	*	*	*	*	*	*	*ij	*	*	*	*	*	*	*	*	*
!LO:LB:g=original	!	!	!	!	!	!	!	!	!	!	!	!	!	!	!	!	!	!	!LO:LB:g=original	!	!	!	!	!	!	!	!	!	!
4FF/	.	4F/	.	8cc\	8ryy	.	8a/	8ryy	.	2F\	in	.	2c\	in	.	2a\	in	.	2ff\	in	.	1r	.	1r	.	1a	.	1ff	.
.	.	.	.	4ff/	4a\	.	4ff/	4a\	.	.	.	.	.	.	.	.	.	.	.	.	.	.	.	.	.	.	.	.	.
4F\	.	4f\	.	.	.	.	.	.	.	.	.	.	.	.	.	.	.	.	.	.	.	.	.	.	.	.	.	.	.
.	.	.	.	4ff/	4a\	.	4ff/	4a\	.	.	.	.	.	.	.	.	.	.	.	.	.	.	.	.	.	.	.	.	.
4D/	.	4d\	.	.	.	.	.	.	.	4D/	ex-	.	2d\	ex-	.	2a\	ex-	.	2ff\	ex-	.	.	.	.	.	.	.	.	.
.	.	.	.	4ff/	4a\	.	4ff/	4a\	.	.	.	.	.	.	.	.	.	.	.	.	.	.	.	.	.	.	.	.	.
4C/	.	4c\	.	.	.	.	.	.	.	4C/	.	.	.	.	.	.	.	.	.	.	.	.	.	.	.	.	.	.	.
.	.	.	.	8ff/	8a\	.	[8ff/	8a\	.	.	.	.	.	.	.	.	.	.	.	.	.	.	.	.	.	.	.	.	.
=66	=66	=66	=66	=66	=66	=66	=66	=66	=66	=66	=66	=66	=66	=66	=66	=66	=66	=66	=66	=66	=66	=66	=66	=66	=66	=66	=66	=66	=66
4BB/	.	4B/	.	8ff/	8g\	.	8ff/]	1g	.	2BB/	-cel-	.	2d\	-cel-	.	2g\	-cel-	.	2ff\	-cel-	.	4g/	.	4dd/	.	1g	.	2ff\	.
.	.	.	.	4ff/	4g\	.	4ff/	.	.	.	.	.	.	.	.	.	.	.	.	.	.	.	.	.	.	.	.	.	.
4D/	.	4d/	.	.	.	.	.	.	.	.	.	.	.	.	.	.	.	.	.	.	.	8g/L	.	8dd/L	.	.	.	.	.
.	.	.	.	4ff/	4g\	.	4ff/	.	.	.	.	.	.	.	.	.	.	.	.	.	.	8g/J	.	8dd/J	.	.	.	.	.
4BB/	.	4B/	.	.	.	.	.	.	.	2BB/	-ſis	.	2d\	-ſis	.	2g\	-sis	.	2ff\	-sis	.	4g/	.	4dd/	.	.	.	2ff\	.
*	*	*	*	*	*	*	*	*	*	*	*	*	*	*Xij	*	*	*Xij	*	*	*Xij	*	*	*	*	*	*	*	*	*
.	.	.	.	4ff/	4g\	.	4ff/	.	.	.	.	.	.	.	.	.	.	.	.	.	.	.	.	.	.	.	.	.	.
4GG/	.	4G/	.	.	.	.	.	.	.	.	.	.	.	.	.	.	.	.	.	.	.	4r	.	4r	.	.	.	.	.
.	.	.	.	8ff/	8g\	.	8ff/	.	.	.	.	.	.	.	.	.	.	.	.	.	.	.	.	.	.	.	.	.	.
=67	=67	=67	=67	=67	=67	=67	=67	=67	=67	=67	=67	=67	=67	=67	=67	=67	=67	=67	=67	=67	=67	=67	=67	=67	=67	=67	=67	=67	=67
!	!	!LO:LB:g=original	!	!	!	!	!	!	!	!	!	!	!	!	!	!	!	!	!	!	!	!	!	!	!	!	!	!	!
4C/	.	4c/	.	8ee/	8g\	.	8ee/	1g	.	1C	De-	.	1c	De-	.	1g	De-	.	1ee	De-	.	4cc\	.	4ee\	.	4g/	.	4ee\	.
.	.	.	.	4ee/	4g\	.	4ee/	.	.	.	.	.	.	.	.	.	.	.	.	.	.	.	.	.	.	.	.	.	.
4G\	.	4g\	.	.	.	.	.	.	.	.	.	.	.	.	.	.	.	.	.	.	.	8cc\L	.	8ee\L	.	4g/	.	8ee\L	.
.	.	.	.	4ee/	4g\	.	4ee/	.	.	.	.	.	.	.	.	.	.	.	.	.	.	8cc\J	.	8ee\J	.	.	.	8ee\J	.
!	!	!	!	!	!	!	!	!	!	!	!	!	!	!	!	!	!	!	!	!	!	!LO:LB:g=original	!	!	!	!LO:LB:g=original	!	!	!
4E\	.	4e\	.	.	.	.	.	.	.	.	.	.	.	.	.	.	.	.	.	.	.	4cc\	.	4ee\	.	4g/	.	4ee\	.
.	.	.	.	4ee/	4g\	.	4ee/	.	.	.	.	.	.	.	.	.	.	.	.	.	.	.	.	.	.	.	.	.	.
4C/	.	4c/	.	.	.	.	.	.	.	.	.	.	.	.	.	.	.	.	.	.	.	4r	.	4r	.	4g/	.	4ee\	.
.	.	.	.	8ee/	8g\	.	8ee/	.	.	.	.	.	.	.	.	.	.	.	.	.	.	.	.	.	.	.	.	.	.
=68	=68	=68	=68	=68	=68	=68	=68	=68	=68	=68	=68	=68	=68	=68	=68	=68	=68	=68	=68	=68	=68	=68	=68	=68	=68	=68	=68	=68	=68
4BB/	.	4B/	.	8ff/	8g\	.	8ff/	1g	.	1BB	-o	.	1d	-o	.	1g	-o	.	1ff	-o	.	4g/	.	4ff\	.	2g/	.	2ff\	.
.	.	.	.	4ff/	4g\	.	4ff/	.	.	.	.	.	.	.	.	.	.	.	.	.	.	.	.	.	.	.	.	.	.
4D/	.	4d/	.	.	.	.	.	.	.	.	.	.	.	.	.	.	.	.	.	.	.	8g/L	.	8ff\L	.	.	.	.	.
.	.	.	.	4ff/	4g\	.	4ff/	.	.	.	.	.	.	.	.	.	.	.	.	.	.	8g/J	.	8ff\J	.	.	.	.	.
4BB/	.	4B/	.	.	.	.	.	.	.	.	.	.	.	.	.	.	.	.	.	.	.	4g/	.	4ff\	.	2g/	.	2ff\	.
.	.	.	.	4ff/	4g\	.	4ff/	.	.	.	.	.	.	.	.	.	.	.	.	.	.	.	.	.	.	.	.	.	.
4GG/	.	4G/	.	.	.	.	.	.	.	.	.	.	.	.	.	.	.	.	.	.	.	4r	.	4r	.	.	.	.	.
.	.	.	.	8ff/	8g\	.	8ff/	.	.	.	.	.	.	.	.	.	.	.	.	.	.	.	.	.	.	.	.	.	.
=69	=69	=69	=69	=69	=69	=69	=69	=69	=69	=69	=69	=69	=69	=69	=69	=69	=69	=69	=69	=69	=69	=69	=69	=69	=69	=69	=69	=69	=69
!	!	!	!	!	!	!	!	!	!	!	!	!	!	!	!	!	!	!	!	!LO:MO:mod=*	!	!	!	!	!	!	!	!	!
*	*	*	*	*	*	*	*	*	*	*	*	*	*	*	*	*	*	*	*	*ij	*	*	*	*	*	*	*	*	*
!LO:TX:t=P:problem=brak 2 taktów	!	!	!	!LO:TX:t=P:problem=takty 69-70 w repetycji	!	!	!LO:LB:g=original	!	!	!	!	!	!LO:LB:g=original	!	!	!LO:LB:g=original	!	!	!	!	!	!	!	!	!	!	!	!	!
1ryy	.	4c\	.	8ee/yy	8g\yy	.	4cc/ 4ee	4g\	.	2C/	in	.	2c\	in	.	1g	De-	.	1ee	De-	.	4cc\	.	4ee\	.	4g/	.	4ee\	.
.	.	.	.	4ee/yy	4g\yy	.	.	.	.	.	.	.	.	.	.	.	.	.	.	.	.	.	.	.	.	.	.	.	.
.	.	.	.	.	.	.	8qff/	.	.	.	.	.	.	.	.	.	.	.	.	.	.	.	.	.	.	.	.	.	.
.	.	4g\	.	.	.	.	8ee\L	4ryy	.	.	.	.	.	.	.	.	.	.	.	.	.	8cc\L	.	8ee\L	.	4g/	.	4ee\	.
.	.	.	.	4ee/yy	4g\yy	.	16dd\L	.	.	.	.	.	.	.	.	.	.	.	.	.	.	8cc\J	.	8ee\J	.	.	.	.	.
.	.	.	.	.	.	.	16ee\JJ	.	.	.	.	.	.	.	.	.	.	.	.	.	.	.	.	.	.	.	.	.	.
.	.	.	.	.	.	.	8qff/	.	.	.	.	.	.	.	.	.	.	.	.	.	.	.	.	.	.	.	.	.	.
.	.	4e\	.	.	.	.	8ee\L	2ryy	.	2C/	ex-	.	2c\	ex-	.	.	.	.	.	.	.	4cc\	.	4ee\	.	4g/	.	4ee\	.
.	.	.	.	4ee/yy	4g\yy	.	16dd\L	.	.	.	.	.	.	.	.	.	.	.	.	.	.	.	.	.	.	.	.	.	.
.	.	.	.	.	.	.	16ee\JJ	.	.	.	.	.	.	.	.	.	.	.	.	.	.	.	.	.	.	.	.	.	.
.	.	.	.	.	.	.	8qff/	.	.	.	.	.	.	.	.	.	.	.	.	.	.	.	.	.	.	.	.	.	.
.	.	4c\	.	.	.	.	8ee\L	.	.	.	.	.	.	.	.	.	.	.	.	.	.	4cc\	.	4ee\	.	4g/	.	4ee\	.
.	.	.	.	8ee/yy	8g\yy	.	16dd\L	.	.	.	.	.	.	.	.	.	.	.	.	.	.	.	.	.	.	.	.	.	.
.	.	.	.	.	.	.	16ee\JJ	.	.	.	.	.	.	.	.	.	.	.	.	.	.	.	.	.	.	.	.	.	.
*	*	*	*	*	*	*	*v	*v	*	*	*	*	*	*	*	*	*	*	*	*	*	*	*	*	*	*	*	*	*
=70	=70	=70	=70	=70	=70	=70	=70	=70	=70	=70	=70	=70	=70	=70	=70	=70	=70	=70	=70	=70	=70	=70	=70	=70	=70	=70	=70	=70
1ryy	.	4B/	.	8ff/yy	8g\yy	.	4g\ 4ff	.	2BB/	-cel-	.	2d\	-cel-	.	1g	-o	.	1ff	-o	.	4g/	.	1ff	.	2g/	.	2ff\	.
*	*	*	*	*	*	*	*	*	*	*	*	*	*	*	*	*	*	*	*Xij	*	*	*	*	*	*	*	*	*
.	.	.	.	4ff/yy	4g\yy	.	.	.	.	.	.	.	.	.	.	.	.	.	.	.	.	.	.	.	.	.	.	.
.	.	.	.	.	.	.	8qgg/	.	.	.	.	.	.	.	.	.	.	.	.	.	.	.	.	.	.	.	.	.
.	.	4d/	.	.	.	.	8ff\L	.	.	.	.	.	.	.	.	.	.	.	.	.	4r	.	.	.	.	.	.	.
.	.	.	.	4ff/yy	4g\yy	.	16ee\L	.	.	.	.	.	.	.	.	.	.	.	.	.	.	.	.	.	.	.	.	.
.	.	.	.	.	.	.	16ff\JJ	.	.	.	.	.	.	.	.	.	.	.	.	.	.	.	.	.	.	.	.	.
.	.	.	.	.	.	.	8qgg/	.	.	.	.	.	.	.	.	.	.	.	.	.	.	.	.	.	.	.	.	.
.	.	4B/	.	.	.	.	8ff\L	.	2BB/	-ſis	.	2d\	-ſis	.	.	.	.	.	.	.	4g/	.	.	.	2g/	.	4ff\	.
.	.	.	.	4ff/yy	4g\yy	.	16ee\L	.	.	.	.	.	.	.	.	.	.	.	.	.	.	.	.	.	.	.	.	.
.	.	.	.	.	.	.	16ff\JJ	.	.	.	.	.	.	.	.	.	.	.	.	.	.	.	.	.	.	.	.	.
.	.	.	.	.	.	.	8qgg/	.	.	.	.	.	.	.	.	.	.	.	.	.	.	.	.	.	.	.	.	.
.	.	4G/	.	.	.	.	8ff\L	.	.	.	.	.	.	.	.	.	.	.	.	.	4g/	.	.	.	.	.	4ff\	.
.	.	.	.	8ff/yy	8g\yy	.	16ee\L	.	.	.	.	.	.	.	.	.	.	.	.	.	.	.	.	.	.	.	.	.
.	.	.	.	.	.	.	16ff\JJ	.	.	.	.	.	.	.	.	.	.	.	.	.	.	.	.	.	.	.	.	.
*	*	*	*	*v	*v	*	*	*	*	*	*	*	*	*	*	*	*	*	*	*	*	*	*	*	*	*	*	*
=71	=71	=71	=71	=71	=71	=71	=71	=71	=71	=71	=71	=71	=71	=71	=71	=71	=71	=71	=71	=71	=71	=71	=71	=71	=71	=71	=71
!LO:TX:t=P:problem=mixed beam	!	!LO:TX:t=P:problem=mixed beam	!	!	!	!	!	!	!	!	!	!	!	!	!	!	!	!	!	!	!	!	!	!	!	!	!
8C/L	.	8c/L	.	4g/	.	4ee\	.	4C/	De-	.	4c\	De-	.	4g\	De-	.	4ee\	De-	.	4cc\	.	4ee\	.	4g\	.	4ee\	.
8C/	.	8c/	.	.	.	.	.	.	.	.	.	.	.	.	.	.	.	.	.	.	.	.	.	.	.	.	.
8A\	.	8a\	.	16ee\LL	.	16ccc\LL	.	4A\	-o	.	4c\	-o	.	4a\	-o	.	4ee\	-o	.	4r	.	4r	.	4cc\	.	4ee\	.
.	.	.	.	16ee\	.	16ccc\	.	.	.	.	.	.	.	.	.	.	.	.	.	.	.	.	.	.	.	.	.
8A\J	.	8a\J	.	16ee\	.	16ccc\	.	.	.	.	.	.	.	.	.	.	.	.	.	.	.	.	.	.	.	.	.
.	.	.	.	16ee\JJ	.	16ccc\JJ	.	.	.	.	.	.	.	.	.	.	.	.	.	.	.	.	.	.	.	.	.
8F\L	.	8a\L	.	16ff\LL	.	16ddd\LL	.	4F\	glo-	.	4A\	glo-	.	4a\	glo-	.	4ff\	glo-	.	4r	.	4r	.	4dd\	.	4ff\	.
.	.	.	.	16ff\	.	16ddd\	.	.	.	.	.	.	.	.	.	.	.	.	.	.	.	.	.	.	.	.	.
8F\	.	8a\	.	16ff\	.	16ddd\	.	.	.	.	.	.	.	.	.	.	.	.	.	.	.	.	.	.	.	.	.
.	.	.	.	16ff\JJ	.	16ddd\JJ	.	.	.	.	.	.	.	.	.	.	.	.	.	.	.	.	.	.	.	.	.
8G\	.	8g\	.	16dd\LL	.	16bb\LL	.	4G\	-ri-	.	4d\	-ri-	.	4g\	-ri-	.	4dd\	-ri-	.	4g/	.	4dd\	.	4b\	.	4dd\	.
.	.	.	.	16dd\	.	16bb\	.	.	.	.	.	.	.	.	.	.	.	.	.	.	.	.	.	.	.	.	.
8G\J	.	8g\J	.	16dd\	.	16bb\	.	.	.	.	.	.	.	.	.	.	.	.	.	.	.	.	.	.	.	.	.
.	.	.	.	16dd\JJ	.	16bb\JJ	.	.	.	.	.	.	.	.	.	.	.	.	.	.	.	.	.	.	.	.	.
=72	=72	=72	=72	=72	=72	=72	=72	=72	=72	=72	=72	=72	=72	=72	=72	=72	=72	=72	=72	=72	=72	=72	=72	=72	=72	=72	=72
*	*	*	*	*^	*	*	*	*	*	*	*	*	*	*	*	*	*	*	*	*	*	*	*	*	*	*	*
!LO:TX:t=P:problem=mixed beam	!	!	!	!	!	!	!	!	!LO:LB:g=original	!	!	!	!	!	!	!	!	!	!	!	!	!	!	!	!	!	!	!
8C/L	.	4g\	.	4ee/	4cc\	.	4ee\ 4ccc	.	4C/	-a	.	4c\	-a	.	4g\	-a	.	4ee\	-a	.	4cc\	.	4ee\	.	4cc\	.	4ee\	.
8c\	.	.	.	.	.	.	.	.	.	.	.	.	.	.	.	.	.	.	.	.	.	.	.	.	.	.	.	.
8G\	.	4g\	.	4ee/	4cc\	.	4ee\ 4ccc	.	4r	.	.	4r	.	.	4r	.	.	4r	.	.	4e/	.	4cc\	.	4g\	.	4ee\	.
8E\J	.	.	.	.	.	.	.	.	.	.	.	.	.	.	.	.	.	.	.	.	.	.	.	.	.	.	.	.
4C/	.	4g\	.	4ee/	4cc\	.	4ee\ 4ccc	.	2r	.	.	2r	.	.	2r	.	.	2r	.	.	4e/	.	4cc\	.	4g\	.	4ee\	.
4r	.	4r	.	4r	4ryy	.	4r	.	.	.	.	.	.	.	.	.	.	.	.	.	4r	.	4r	.	4r	.	4r	.
*	*	*	*	*v	*v	*	*	*	*	*	*	*	*	*	*	*	*	*	*	*	*	*	*	*	*	*	*	*
=73	=73	=73	=73	=73	=73	=73	=73	=73	=73	=73	=73	=73	=73	=73	=73	=73	=73	=73	=73	=73	=73	=73	=73	=73	=73	=73	=73
!	!LO:DY:a:t=p&colon;:rj	!	!LO:DY:a:t=pia&colon;	!	!LO:DY:a:t=p&colon;:rj	!	!LO:DY:a:t=p&colon;:rj	!	!	!LO:DY:a:t=p&colon;:rj	!	!	!LO:DY:a:t=p&colon;	!	!	!LO:DY:a:t=p&colon;:rj	!	!	!LO:DY:a:t=p&colon;	!	!	!LO:TX:a:t=11:mod=	!	!LO:TX:a:t=11:mod=	!	!LO:TX:a:t=11.:mod=	!
2G\	p	2G/	p	2b\	p	4gg\	p	2G\	Et	p	2B\	Et	p	2g\	Et	p	2dd\	Et	p	00r	.	00r	.	00r	.	00r	.
.	.	.	.	.	.	4ddd\	.	.	.	.	.	.	.	.	.	.	.	.	.	.	.	.	.	.	.	.	.
2B\	.	2G/	.	2dd\	.	4bb\	.	2B\	in	.	2G/	in	.	2g\	in	.	2dd\	in	.	.	.	.	.	.	.	.	.
.	.	.	.	.	.	4ffn\	.	.	.	.	.	.	.	.	.	.	.	.	.	.	.	.	.	.	.	.	.
=74	=74	=74	=74	=74	=74	=74	=74	=74	=74	=74	=74	=74	=74	=74	=74	=74	=74	=74	=74	=74	=74	=74	=74	=74	=74	=74	=74
2c\	.	2G/	.	2g/	.	4ee\	.	2c\	ter-	.	2G/	ter-	.	2g\	ter-	.	2ee\	ter-	.	.	.	.	.	.	.	.	.
.	.	.	.	.	.	4ccc\	.	.	.	.	.	.	.	.	.	.	.	.	.	.	.	.	.	.	.	.	.
2A\	.	2d\	.	2cc\	.	4aa\	.	2A\	-ra	.	2c\	-ra	.	2f#X\	-ra	.	2dd\	-ra	.	.	.	.	.	.	.	.	.
.	.	.	.	.	.	4ff#X\	.	.	.	.	.	.	.	.	.	.	.	.	.	.	.	.	.	.	.	.	.
=75	=75	=75	=75	=75	=75	=75	=75	=75	=75	=75	=75	=75	=75	=75	=75	=75	=75	=75	=75	=75	=75	=75	=75	=75	=75	=75	=75
!	!	!	!	!LO:LB:g=original	!	!	!	!	!	!	!	!	!	!	!	!	!	!	!	!	!	!	!	!	!	!	!
2G\	.	2G/	.	2b\	.	4gg\	.	2G\	pax	.	2B\	pax	.	2g\	pax	.	2dd\	pax	.	.	.	.	.	.	.	.	.
.	.	.	.	.	.	4ddd\	.	.	.	.	.	.	.	.	.	.	.	.	.	.	.	.	.	.	.	.	.
2B\	.	2G/	.	2dd\	.	4bb\	.	2B\	ho-	.	2G/	ho-	.	2g\	ho-	.	2dd\	ho-	.	.	.	.	.	.	.	.	.
*	*	*	*	*	*	*custos:ee	*	*	*	*	*	*	*	*	*	*	*	*	*	*	*	*	*	*	*	*	*
.	.	.	.	.	.	4ffn\	.	.	.	.	.	.	.	.	.	.	.	.	.	.	.	.	.	.	.	.	.
=76	=76	=76	=76	=76	=76	=76	=76	=76	=76	=76	=76	=76	=76	=76	=76	=76	=76	=76	=76	=76	=76	=76	=76	=76	=76	=76	=76
!	!	!	!	!	!	!LO:LB:g=original	!	!	!	!	!	!	!	!	!	!	!	!	!	!	!	!	!	!	!	!	!
2c\	.	2G/	.	2g/	.	4ee\	.	2c\	-mi-	.	2G/	-mi-	.	2g\	-mi-	.	2ee\	-mi-	.	.	.	.	.	.	.	.	.
.	.	.	.	.	.	4ccc\	.	.	.	.	.	.	.	.	.	.	.	.	.	.	.	.	.	.	.	.	.
2A\	.	2d\	.	2cc\	.	4aa\	.	2A\	-ni-	.	2c\	-ni-	.	2f#X\	-ni-	.	2dd\	-ni-	.	.	.	.	.	.	.	.	.
.	.	.	.	.	.	4ff#X\	.	.	.	.	.	.	.	.	.	.	.	.	.	.	.	.	.	.	.	.	.
=77	=77	=77	=77	=77	=77	=77	=77	=77	=77	=77	=77	=77	=77	=77	=77	=77	=77	=77	=77	=77	=77	=77	=77	=77	=77	=77	=77
!LO:LB:g=original	!	!	!	!	!	!	!	!	!	!	!	!	!	!	!	!	!LO:LB:g=original	!	!	!	!	!	!	!	!	!	!
4G\	.	4d\	.	4b\	.	4gg\	.	4G\	-bus	.	4B\	-bus	.	4g\	-bus	.	4dd\	-bus	.	00r	.	00r	.	00r	.	00r	.
4r	.	4r	.	4r	.	4r	.	4r	.	.	4r	.	.	4r	.	.	4r	.	.	.	.	.	.	.	.	.	.
2r	.	2r	.	2r	.	2r	.	2r	.	.	2r	.	.	2r	.	.	2r	.	.	.	.	.	.	.	.	.	.
=78	=78	=78	=78	=78	=78	=78	=78	=78	=78	=78	=78	=78	=78	=78	=78	=78	=78	=78	=78	=78	=78	=78	=78	=78	=78	=78	=78
!LO:TX:a:t=7:mod=	!	!LO:TX:a:t=7:mod=	!	!LO:TX:a:t=7:mod=	!	!	!LO:DY:a:t=pp.:rj	!LO:TX:a:t=11:mod=	!	!	!	!	!	!LO:TX:a:t=6:mod=	!	!	!	!	!	!	!	!	!	!	!	!	!
00r	.	00r	.	00r	.	8dd\L	pp	00r	.	.	00r	.	.	00r	.	.	00r	.	.	.	.	.	.	.	.	.	.
.	.	.	.	.	.	8cc\	.	.	.	.	.	.	.	.	.	.	.	.	.	.	.	.	.	.	.	.	.
.	.	.	.	.	.	8b\	.	.	.	.	.	.	.	.	.	.	.	.	.	.	.	.	.	.	.	.	.
.	.	.	.	.	.	8a\J	.	.	.	.	.	.	.	.	.	.	.	.	.	.	.	.	.	.	.	.	.
.	.	.	.	.	.	8g/L	.	.	.	.	.	.	.	.	.	.	.	.	.	.	.	.	.	.	.	.	.
.	.	.	.	.	.	8f/	.	.	.	.	.	.	.	.	.	.	.	.	.	.	.	.	.	.	.	.	.
.	.	.	.	.	.	8e/	.	.	.	.	.	.	.	.	.	.	.	.	.	.	.	.	.	.	.	.	.
.	.	.	.	.	.	8d/J	.	.	.	.	.	.	.	.	.	.	.	.	.	.	.	.	.	.	.	.	.
=79	=79	=79	=79	=79	=79	=79	=79	=79	=79	=79	=79	=79	=79	=79	=79	=79	=79	=79	=79	=79	=79	=79	=79	=79	=79	=79	=79
.	.	.	.	.	.	8c/L	.	.	.	.	.	.	.	.	.	.	.	.	.	.	.	.	.	.	.	.	.
.	.	.	.	.	.	8d/	.	.	.	.	.	.	.	.	.	.	.	.	.	.	.	.	.	.	.	.	.
.	.	.	.	.	.	8e/	.	.	.	.	.	.	.	.	.	.	.	.	.	.	.	.	.	.	.	.	.
.	.	.	.	.	.	8f/J	.	.	.	.	.	.	.	.	.	.	.	.	.	.	.	.	.	.	.	.	.
.	.	.	.	.	.	8g/L	.	.	.	.	.	.	.	.	.	.	.	.	.	.	.	.	.	.	.	.	.
.	.	.	.	.	.	8a/	.	.	.	.	.	.	.	.	.	.	.	.	.	.	.	.	.	.	.	.	.
.	.	.	.	.	.	8b/	.	.	.	.	.	.	.	.	.	.	.	.	.	.	.	.	.	.	.	.	.
.	.	.	.	.	.	8cc/J	.	.	.	.	.	.	.	.	.	.	.	.	.	.	.	.	.	.	.	.	.
=80	=80	=80	=80	=80	=80	=80	=80	=80	=80	=80	=80	=80	=80	=80	=80	=80	=80	=80	=80	=80	=80	=80	=80	=80	=80	=80	=80
.	.	.	.	.	.	8dd\L	.	.	.	.	.	.	.	.	.	.	.	.	.	.	.	.	.	.	.	.	.
.	.	.	.	.	.	8cc\	.	.	.	.	.	.	.	.	.	.	.	.	.	.	.	.	.	.	.	.	.
.	.	.	.	.	.	8b\	.	.	.	.	.	.	.	.	.	.	.	.	.	.	.	.	.	.	.	.	.
.	.	.	.	.	.	8a\J	.	.	.	.	.	.	.	.	.	.	.	.	.	.	.	.	.	.	.	.	.
.	.	.	.	.	.	8g/L	.	.	.	.	.	.	.	.	.	.	.	.	.	.	.	.	.	.	.	.	.
.	.	.	.	.	.	8f/	.	.	.	.	.	.	.	.	.	.	.	.	.	.	.	.	.	.	.	.	.
.	.	.	.	.	.	8e/	.	.	.	.	.	.	.	.	.	.	.	.	.	.	.	.	.	.	.	.	.
.	.	.	.	.	.	8d/J	.	.	.	.	.	.	.	.	.	.	.	.	.	.	.	.	.	.	.	.	.
=81	=81	=81	=81	=81	=81	=81	=81	=81	=81	=81	=81	=81	=81	=81	=81	=81	=81	=81	=81	=81	=81	=81	=81	=81	=81	=81	=81
.	.	.	.	.	.	4c/	.	.	.	.	.	.	.	.	.	.	.	.	.	0r	.	0r	.	0r	.	0r	.
.	.	.	.	.	.	4r	.	.	.	.	.	.	.	.	.	.	.	.	.	.	.	.	.	.	.	.	.
.	.	.	.	.	.	2c/	.	.	.	.	.	.	.	.	.	.	.	.	.	.	.	.	.	.	.	.	.
=82	=82	=82	=82	=82	=82	=82	=82	=82	=82	=82	=82	=82	=82	=82	=82	=82	=82	=82	=82	=82	=82	=82	=82	=82	=82	=82	=82
0r	.	0r	.	0r	.	2c/	.	00r	.	.	0r	.	.	0r	.	.	0r	.	.	.	.	.	.	.	.	.	.
.	.	.	.	.	.	2A/	.	.	.	.	.	.	.	.	.	.	.	.	.	.	.	.	.	.	.	.	.
=83	=83	=83	=83	=83	=83	=83	=83	=83	=83	=83	=83	=83	=83	=83	=83	=83	=83	=83	=83	=83	=83	=83	=83	=83	=83	=83	=83
.	.	.	.	.	.	2A/	.	.	.	.	.	.	.	.	.	.	.	.	.	1r	.	1r	.	1r	.	1r	.
.	.	.	.	.	.	2A/	.	.	.	.	.	.	.	.	.	.	.	.	.	.	.	.	.	.	.	.	.
=84	=84	=84	=84	=84	=84	=84	=84	=84	=84	=84	=84	=84	=84	=84	=84	=84	=84	=84	=84	=84	=84	=84	=84	=84	=84	=84	=84
*	*	*	*	*	*	*	*	*	*	*	*custos:d	*	*	*	*	*	*	*	*	*	*	*	*	*	*	*	*
!	!	!	!	!	!	!	!	!	!	!	!LO:MO:mod=!null:null	!	!	!	!	!	!	!	!	!	!	!	!	!	!	!	!
!	!	!	!	!	!	!	!	!	!	!	!LO:TX:b:t=vertatur	!	!	!	!	!	!	!	!	!	!	!	!	!	!	!	!
!	!	!	!	!	!	!	!LO:DY:a:t=for&colon;	!	!	!	!	!	!LO:DY:a:t=for&colon;	!	!	!	!	!	!	!LO:TX:t=P:problem=brak 1 taktu	!	!LO:TX:t=P:problem=brak 1 taktu	!	!LO:TX:t=P:problem=brak 1 taktu	!	!LO:TX:t=P:problem=brak 1 taktu	!
!	!	!	!	!	!	!	!	!	!	!	!	!	!LO:MO:mod=.	!	!	!	!	!	!	!	!	!	!	!	!	!	!
1r	.	1r	.	1r	.	4G/	f	.	.	.	1r	.	f	2r	.	.	1r	.	.	1ryy	.	1ryy	.	1ryy	.	1ryy	.
.	.	.	.	.	.	16gg\LL	.	.	.	.	.	.	.	.	.	.	.	.	.	.	.	.	.	.	.	.	.
.	.	.	.	.	.	16ff#X\	.	.	.	.	.	.	.	.	.	.	.	.	.	.	.	.	.	.	.	.	.
.	.	.	.	.	.	16gg\	.	.	.	.	.	.	.	.	.	.	.	.	.	.	.	.	.	.	.	.	.
.	.	.	.	.	.	16aa\JJ	.	.	.	.	.	.	.	.	.	.	.	.	.	.	.	.	.	.	.	.	.
!	!	!	!	!	!	!	!	!	!	!	!	!	!	!	!	!LO:DY:a:t=for&colon;:rj	!	!	!	!	!	!	!	!	!	!	!
.	.	.	.	.	.	4gg\	.	.	.	.	.	.	.	4g\	bo-	f	.	.	.	.	.	.	.	.	.	.	.
.	.	.	.	.	.	4gg\	.	.	.	.	.	.	.	4g\	-nae	.	.	.	.	.	.	.	.	.	.	.	.
!!LO:MO:mod
=85	=85	=85	=85	=85	=85	=85	=85	=85	=85	=85	=85	=85	=85	=85	=85	=85	=85	=85	=85	=85	=85	=85	=85	=85	=85	=85	=85
!LO:TX:t=P:problem=4 nadmiarowe takty w B	!	!LO:TX:t=P:problem=4 nadmiarowe takty w B	!	!LO:TX:t=P:problem=4 nadmiarowe takty w B	!	!LO:TX:t=P:problem=4 nadmiarowe takty w B	!	!	!	!	!LO:TX:t=P:problem=4 nadmiarowe takty w B	!	!	!LO:TX:t=P:problem=4 nadmiarowe takty w B	!	!	!LO:TX:t=P:problem=4 nadmiarowe takty w B	!	!	!LO:TX:t=P:problem=4 nadmiarowe takty w B	!	!LO:TX:t=P:problem=4 nadmiarowe takty w B	!	!LO:TX:t=P:problem=4 nadmiarowe takty w B	!	!LO:TX:t=P:problem=4 nadmiarowe takty w B	!
1ryy	.	1ryy	.	1ryy	.	1ryy	.	.	.	.	1ryy	.	.	1ryy	.	.	1ryy	.	.	1ryy	.	1ryy	.	1ryy	.	1ryy	.
=86	=86	=86	=86	=86	=86	=86	=86	=86	=86	=86	=86	=86	=86	=86	=86	=86	=86	=86	=86	=86	=86	=86	=86	=86	=86	=86	=86
1ryy	.	1ryy	.	1ryy	.	1ryy	.	0r	.	.	1ryy	.	.	1ryy	.	.	1ryy	.	.	1ryy	.	1ryy	.	1ryy	.	1ryy	.
=87	=87	=87	=87	=87	=87	=87	=87	=87	=87	=87	=87	=87	=87	=87	=87	=87	=87	=87	=87	=87	=87	=87	=87	=87	=87	=87	=87
1ryy	.	1ryy	.	1ryy	.	1ryy	.	.	.	.	1ryy	.	.	1ryy	.	.	1ryy	.	.	1ryy	.	1ryy	.	1ryy	.	1ryy	.
=88	=88	=88	=88	=88	=88	=88	=88	=88	=88	=88	=88	=88	=88	=88	=88	=88	=88	=88	=88	=88	=88	=88	=88	=88	=88	=88	=88
1ryy	.	1ryy	.	1ryy	.	1ryy	.	1r	.	.	1ryy	.	.	1ryy	.	.	1ryy	.	.	1ryy	.	1ryy	.	1ryy	.	1ryy	.
!!LO:MO:end
=89	=89	=89	=89	=89	=89	=89	=89	=89	=89	=89	=89	=89	=89	=89	=89	=89	=89	=89	=89	=89	=89	=89	=89	=89	=89	=89	=89
*tremolo	*	*	*	*	*	*	*	*	*	*	*	*	*	*	*	*	*	*	*	*	*	*	*	*	*	*	*
!	!LO:DY:a:t=for&colon;:rj	!LO:LB:g=original	!LO:DY:a:t=for&colon;:rj	!	!LO:DY:a:t=for&colon;:rj	!	!	!	!	!LO:DY:a:t=f&colon;:rj	!LO:PB:g=original	!	!LO:DY:a:t=f&colon;:rj	!LO:LB:g=original	!	!	!	!	!LO:DY:a:t=f&colon;:rj	!	!	!LO:LB:g=original	!	!	!LO:DY:a:t=for&colon;:rj	!	!LO:DY:a:t=for:rj
8B\L	f	8g\L	f	16dd\LL	f	8gg\	.	2B\	bo-	f	2d\	bo-	f	2g\	bo-	.	2dd\	bo-	f	4g/	.	4dd\	.	2dd\	f	4gg\	f
.	.	.	.	16dd\	.	.	.	.	.	.	.	.	.	.	.	.	.	.	.	.	.	.	.	.	.	.	.
8B\	.	8g\	.	16dd\	.	4ddd\	.	.	.	.	.	.	.	.	.	.	.	.	.	.	.	.	.	.	.	.	.
.	.	.	.	16dd\JJ	.	.	.	.	.	.	.	.	.	.	.	.	.	.	.	.	.	.	.	.	.	.	.
*	*	*	*	*tremolo	*	*	*	*	*	*	*	*	*	*	*	*	*	*	*	*	*	*	*	*	*	*	*
8B\	.	8g\	.	16dd\LL	.	.	.	.	.	.	.	.	.	.	.	.	.	.	.	8g/L	.	8dd\L	.	.	.	4ddd\	.
.	.	.	.	16dd\	.	.	.	.	.	.	.	.	.	.	.	.	.	.	.	.	.	.	.	.	.	.	.
8B\J	.	8g\J	.	16dd\	.	4bb\	.	.	.	.	.	.	.	.	.	.	.	.	.	8g/J	.	8dd\J	.	.	.	.	.
.	.	.	.	16dd\JJ	.	.	.	.	.	.	.	.	.	.	.	.	.	.	.	.	.	.	.	.	.	.	.
*	*	*tremolo	*	*	*	*	*	*	*	*	*	*	*	*	*	*	*	*	*	*	*	*	*	*	*	*	*
8B\L	.	8g\L	.	16dd\LL	.	.	.	2B\	-nae	.	2B\	-nae	.	2g\	-nae	.	2dd\	-nae	.	4g/	.	4dd\	.	2dd\	.	4bb\	.
.	.	.	.	16dd\	.	.	.	.	.	.	.	.	.	.	.	.	.	.	.	.	.	.	.	.	.	.	.
8B\	.	8g\	.	16dd\	.	4gg\	.	.	.	.	.	.	.	.	.	.	.	.	.	.	.	.	.	.	.	.	.
.	.	.	.	16dd\	.	.	.	.	.	.	.	.	.	.	.	.	.	.	.	.	.	.	.	.	.	.	.
8B\	.	8g\	.	16dd\	.	.	.	.	.	.	.	.	.	.	.	.	.	.	.	4g/	.	4dd\	.	.	.	4ff\	.
.	.	.	.	16dd\	.	.	.	.	.	.	.	.	.	.	.	.	.	.	.	.	.	.	.	.	.	.	.
8B\J	.	8g\J	.	16dd\	.	[8ffn\	.	.	.	.	.	.	.	.	.	.	.	.	.	.	.	.	.	.	.	.	.
.	.	.	.	16dd\JJ	.	.	.	.	.	.	.	.	.	.	.	.	.	.	.	.	.	.	.	.	.	.	.
=90	=90	=90	=90	=90	=90	=90	=90	=90	=90	=90	=90	=90	=90	=90	=90	=90	=90	=90	=90	=90	=90	=90	=90	=90	=90	=90	=90
!	!	!	!	!	!	!	!	!	!LO:MO:mod=*	!	!	!LO:MO:mod=*	!	!	!	!	!	!	!	!	!	!	!	!	!	!	!
*	*	*	*	*	*	*	*	*	*ij	*	*	*ij	*	*	*	*	*	*	*	*	*	*	*	*	*	*	*
!	!	!	!	!	!	!LO:LB:g=original	!	!	!	!	!	!	!	!	!	!	!	!	!	!	!	!	!	!	!	!	!
8c\L	.	8g\L	.	16g/LL	.	8ff\]	.	2c\	bo-	.	2c\	bo-	.	2g\	vo-	.	2ee\	vo-	.	4cc\	.	4ee\	.	2g/	.	4ee\	.
.	.	.	.	16g/	.	.	.	.	.	.	.	.	.	.	.	.	.	.	.	.	.	.	.	.	.	.	.
8c\	.	8g\	.	16g/	.	4ee\	.	.	.	.	.	.	.	.	.	.	.	.	.	.	.	.	.	.	.	.	.
.	.	.	.	16g/	.	.	.	.	.	.	.	.	.	.	.	.	.	.	.	.	.	.	.	.	.	.	.
*	*	*	*	*	*	*	*	*	*	*	*	*	*	*	*	*	*	*	*	*	*	*	*	*	*	*custos:ee	*
8c\	.	8g\	.	16g/	.	.	.	.	.	.	.	.	.	.	.	.	.	.	.	8cc\L	.	8cc\L	.	.	.	4gg\	.
.	.	.	.	16g/	.	.	.	.	.	.	.	.	.	.	.	.	.	.	.	.	.	.	.	.	.	.	.
8c\J	.	8g\J	.	16g/	.	4gg\	.	.	.	.	.	.	.	.	.	.	.	.	.	8cc\J	.	8cc\J	.	.	.	.	.
.	.	.	.	16g/JJ	.	.	.	.	.	.	.	.	.	.	.	.	.	.	.	.	.	.	.	.	.	.	.
!	!	!	!	!	!	!	!	!	!	!	!	!	!	!	!	!	!	!	!	!	!	!	!	!	!	!LO:LB:g=original	!
8E\L	.	8c/L	.	16g/LL	.	.	.	2E\	-nae	.	2c\	-nae	.	2g\	-lun-	.	2b-X\	-lun-	.	4cc\	.	4cc\	.	2g/	.	4ee\	.
*	*	*	*	*	*	*	*	*	*Xij	*	*	*Xij	*	*	*	*	*	*	*	*	*	*	*	*	*	*	*
.	.	.	.	16g/	.	.	.	.	.	.	.	.	.	.	.	.	.	.	.	.	.	.	.	.	.	.	.
8E\	.	8c/	.	16g/	.	4ee\	.	.	.	.	.	.	.	.	.	.	.	.	.	.	.	.	.	.	.	.	.
.	.	.	.	16g/	.	.	.	.	.	.	.	.	.	.	.	.	.	.	.	.	.	.	.	.	.	.	.
8E\	.	8c/	.	16g/	.	.	.	.	.	.	.	.	.	.	.	.	.	.	.	4c/	.	4cc\	.	.	.	4b-X\	.
.	.	.	.	16g/	.	.	.	.	.	.	.	.	.	.	.	.	.	.	.	.	.	.	.	.	.	.	.
8E\J	.	8c/J	.	16g/	.	[8b-X\	.	.	.	.	.	.	.	.	.	.	.	.	.	.	.	.	.	.	.	.	.
.	.	.	.	16g/JJ	.	.	.	.	.	.	.	.	.	.	.	.	.	.	.	.	.	.	.	.	.	.	.
*	*	*Xtremolo	*	*	*	*	*	*	*	*	*	*	*	*	*	*	*	*	*	*	*	*	*	*	*	*	*
=91	=91	=91	=91	=91	=91	=91	=91	=91	=91	=91	=91	=91	=91	=91	=91	=91	=91	=91	=91	=91	=91	=91	=91	=91	=91	=91	=91
8F\L	.	8c/L	.	16a/LL	.	8b-\]	.	2F\	vo-	.	2c\	vo-	.	1a	-ta-	.	2a\	-ta-	.	4c/	.	4cc\	.	1a	.	4a/	.
.	.	.	.	16a/	.	.	.	.	.	.	.	.	.	.	.	.	.	.	.	.	.	.	.	.	.	.	.
8F\	.	8d/	.	16a/	.	4a/	.	.	.	.	.	.	.	.	.	.	.	.	.	.	.	.	.	.	.	.	.
.	.	.	.	16a/	.	.	.	.	.	.	.	.	.	.	.	.	.	.	.	.	.	.	.	.	.	.	.
8F\	.	8d/	.	16a/	.	.	.	.	.	.	.	.	.	.	.	.	.	.	.	4r	.	4r	.	.	.	4aa\	.
.	.	.	.	16a/	.	.	.	.	.	.	.	.	.	.	.	.	.	.	.	.	.	.	.	.	.	.	.
8F\J	.	8d/J	.	16a/	.	4aa\	.	.	.	.	.	.	.	.	.	.	.	.	.	.	.	.	.	.	.	.	.
.	.	.	.	16a/JJ	.	.	.	.	.	.	.	.	.	.	.	.	.	.	.	.	.	.	.	.	.	.	.
*	*	*tremolo	*	*	*	*	*	*	*	*	*	*	*	*	*	*	*	*	*	*	*	*	*	*	*	*	*
8F\L	.	8d/L	.	16a/LL	.	.	.	2F\	-lun-	.	2A\	-lun-	.	.	.	.	2dd\	.	.	2r	.	2r	.	.	.	4ff\	.
.	.	.	.	16a/	.	.	.	.	.	.	.	.	.	.	.	.	.	.	.	.	.	.	.	.	.	.	.
8F\	.	8d/	.	16a/	.	4ff\	.	.	.	.	.	.	.	.	.	.	.	.	.	.	.	.	.	.	.	.	.
.	.	.	.	16a/	.	.	.	.	.	.	.	.	.	.	.	.	.	.	.	.	.	.	.	.	.	.	.
8F\	.	8d/	.	16a/	.	.	.	.	.	.	.	.	.	.	.	.	.	.	.	.	.	.	.	.	.	4dd\	.
.	.	.	.	16a/	.	.	.	.	.	.	.	.	.	.	.	.	.	.	.	.	.	.	.	.	.	.	.
8F\J	.	8d/J	.	16a/	.	8dd\	.	.	.	.	.	.	.	.	.	.	.	.	.	.	.	.	.	.	.	.	.
.	.	.	.	16a/JJ	.	.	.	.	.	.	.	.	.	.	.	.	.	.	.	.	.	.	.	.	.	.	.
*	*	*	*	*Xtremolo	*	*	*	*	*	*	*	*	*	*	*	*	*	*	*	*	*	*	*	*	*	*	*
=92	=92	=92	=92	=92	=92	=92	=92	=92	=92	=92	=92	=92	=92	=92	=92	=92	=92	=92	=92	=92	=92	=92	=92	=92	=92	=92	=92
8G\L	.	8g\L	.	16cc\LL	.	16ee\LL	.	1G	-ta-	.	[1c	-ta-	.	1g	.	.	1ee	.	.	4cc\	.	4ee\	.	1cc	.	1ee	.
.	.	.	.	16ee\	.	16ccc\	.	.	.	.	.	.	.	.	.	.	.	.	.	.	.	.	.	.	.	.	.
8G\	.	8g\	.	16ee\	.	16ccc\	.	.	.	.	.	.	.	.	.	.	.	.	.	.	.	.	.	.	.	.	.
.	.	.	.	16ee\JJ	.	16ccc\JJ	.	.	.	.	.	.	.	.	.	.	.	.	.	.	.	.	.	.	.	.	.
8G\	.	8g\	.	16ee\LL	.	16ccc\LL	.	.	.	.	.	.	.	.	.	.	.	.	.	8cc\L	.	8ee\L	.	.	.	.	.
.	.	.	.	16ee\	.	16ccc\	.	.	.	.	.	.	.	.	.	.	.	.	.	.	.	.	.	.	.	.	.
8G\J	.	8g\J	.	16ee\	.	16ccc\	.	.	.	.	.	.	.	.	.	.	.	.	.	8cc\J	.	8ee\J	.	.	.	.	.
.	.	.	.	16ee\JJ	.	16ccc\JJ	.	.	.	.	.	.	.	.	.	.	.	.	.	.	.	.	.	.	.	.	.
*	*	*	*	*tremolo	*	*tremolo	*	*	*	*	*	*	*	*	*	*	*	*	*	*	*	*	*	*	*	*	*
8G\L	.	8g\L	.	16ee\LL	.	16ccc\LL	.	.	.	.	.	.	.	.	.	.	.	.	.	4cc\	.	4ee\	.	.	.	.	.
.	.	.	.	16ee\	.	16ccc\	.	.	.	.	.	.	.	.	.	.	.	.	.	.	.	.	.	.	.	.	.
8G\	.	8g\	.	16ee\	.	16ccc\	.	.	.	.	.	.	.	.	.	.	.	.	.	.	.	.	.	.	.	.	.
.	.	.	.	16ee\	.	16ccc\	.	.	.	.	.	.	.	.	.	.	.	.	.	.	.	.	.	.	.	.	.
8G\	.	8g\	.	16ee\	.	16ccc\	.	.	.	.	.	.	.	.	.	.	.	.	.	4cc\	.	4ee\	.	.	.	.	.
.	.	.	.	16ee\	.	16ccc\	.	.	.	.	.	.	.	.	.	.	.	.	.	.	.	.	.	.	.	.	.
8G\J	.	8g\J	.	16ee\	.	16ccc\	.	.	.	.	.	.	.	.	.	.	.	.	.	.	.	.	.	.	.	.	.
.	.	.	.	16ee\JJ	.	16ccc\JJ	.	.	.	.	.	.	.	.	.	.	.	.	.	.	.	.	.	.	.	.	.
=93	=93	=93	=93	=93	=93	=93	=93	=93	=93	=93	=93	=93	=93	=93	=93	=93	=93	=93	=93	=93	=93	=93	=93	=93	=93	=93	=93
8GG/L	.	8g\L	.	16dd\LL	.	16ccc\LL	.	1G	.	.	2c\]	.	.	1g	.	.	1dd	.	.	4g/	.	4dd\	.	2cc\	.	1dd	.
.	.	.	.	16dd\	.	16ccc\	.	.	.	.	.	.	.	.	.	.	.	.	.	.	.	.	.	.	.	.	.
8GG/	.	8g\	.	16dd\	.	16ccc\	.	.	.	.	.	.	.	.	.	.	.	.	.	.	.	.	.	.	.	.	.
.	.	.	.	16dd\	.	16ccc\	.	.	.	.	.	.	.	.	.	.	.	.	.	.	.	.	.	.	.	.	.
8GG/	.	8g\	.	16dd\	.	16ccc\	.	.	.	.	.	.	.	.	.	.	.	.	.	4g/	.	8dd\L	.	.	.	.	.
.	.	.	.	16dd\	.	16ccc\	.	.	.	.	.	.	.	.	.	.	.	.	.	.	.	.	.	.	.	.	.
8GG/J	.	8g\J	.	16dd\	.	16ccc\	.	.	.	.	.	.	.	.	.	.	.	.	.	.	.	8dd\J	.	.	.	.	.
.	.	.	.	16dd\JJ	.	16ccc\JJ	.	.	.	.	.	.	.	.	.	.	.	.	.	.	.	.	.	.	.	.	.
8GG/L	.	8g\L	.	16dd\LL	.	16bb\LL	.	.	.	.	2B\	.	.	.	.	.	.	.	.	4g/	.	4dd\	.	2b\	.	.	.
.	.	.	.	16dd\	.	16bb\	.	.	.	.	.	.	.	.	.	.	.	.	.	.	.	.	.	.	.	.	.
8GG/	.	8g\	.	16dd\	.	16bb\	.	.	.	.	.	.	.	.	.	.	.	.	.	.	.	.	.	.	.	.	.
.	.	.	.	16dd\	.	16bb\	.	.	.	.	.	.	.	.	.	.	.	.	.	.	.	.	.	.	.	.	.
8GG/	.	8g\	.	16dd\	.	16bb\	.	.	.	.	.	.	.	.	.	.	.	.	.	4r	.	4dd\	.	.	.	.	.
.	.	.	.	16dd\	.	16bb\	.	.	.	.	.	.	.	.	.	.	.	.	.	.	.	.	.	.	.	.	.
8GG/J	.	8g\J	.	16dd\	.	16bb\	.	.	.	.	.	.	.	.	.	.	.	.	.	.	.	.	.	.	.	.	.
.	.	.	.	16dd\JJ	.	16bb\JJ	.	.	.	.	.	.	.	.	.	.	.	.	.	.	.	.	.	.	.	.	.
*	*	*	*	*	*	*Xtremolo	*	*	*	*	*	*	*	*	*	*	*	*	*	*	*	*	*	*	*	*	*
*	*	*	*	*Xtremolo	*	*	*	*	*	*	*	*	*	*	*	*	*	*	*	*	*	*	*	*	*	*	*
*	*	*Xtremolo	*	*	*	*	*	*	*	*	*	*	*	*	*	*	*	*	*	*	*	*	*	*	*	*	*
*Xtremolo	*	*	*	*	*	*	*	*	*	*	*	*	*	*	*	*	*	*	*	*	*	*	*	*	*	*	*
=94	=94	=94	=94	=94	=94	=94	=94	=94	=94	=94	=94	=94	=94	=94	=94	=94	=94	=94	=94	=94	=94	=94	=94	=94	=94	=94	=94
4C/	.	4g\	.	4ee\	.	4ccc\	.	4C/	-tiſ	.	4c\	-tiſ	.	4g\	-tis	.	4ee\	-tis	.	4cc\	.	4ee\	.	4cc\	.	4ee\	.
4C/	.	4g\	.	4G/ 4e	.	4e/ 4cc	.	4r	.	.	4r	.	.	4r	.	.	4r	.	.	4e/	.	4cc\	.	4cc\	.	4ee\	.
4C/	.	4g\	.	4G/ 4e	.	4e/ 4cc	.	2r	.	.	2r	.	.	2r	.	.	2r	.	.	4e/	.	4cc\	.	4cc\	.	4ee\	.
!	!	!LO:MO:mod=!null:null	!	!	!	!	!	!	!	!	!	!	!	!	!	!	!	!	!	!	!	!	!	!	!	!	!
!	!	!LO:TX:b:t=Laudamus \nSequitur \nvertatur cito.	!	!	!	!	!	!	!	!	!	!	!	!	!	!	!	!	!	!	!	!	!	!	!	!	!
4r	.	4r	.	4r	.	4r	.	.	.	.	.	.	.	.	.	.	.	.	.	4r	.	4r	.	4r	.	4r	.
==	==	==	==	==	==	==	==	==	==	==	==	==	==	==	==	==	==	==	==	==	==	==	==	==	==	==	==
*-	*-	*-	*-	*-	*-	*-	*-	*-	*-	*-	*-	*-	*-	*-	*-	*-	*-	*-	*-	*-	*-	*-	*-	*-	*-	*-	*-
!!!system-decoration: [(s1,s2)][(s3,s4)][(s5,s6,s7,s8)][(s9,s10,s11,s12)]
!!!RDF**kern: > = above
!!!RDF**kern: < = below
!!!ENC: Andrzej Borzym
!!!END: 2020-09-15
!!!ENC: Krzysztof Stępień
!!!END: 2022-01-31
!!!ENC-modern: Leszek Kubiak
!!!END-modern: 2022-11-25
!!!filter-modern: sic -sq | autostem -r | humtr -p | shed -e "s/^custos:/Xcustos:/I" | tie -s | shed -e "s/TX(.*):t=P:/tx$1:t=P:/LG" | shed -k -e "s/yy//" |  shed -e "s/^(\d+[\/\\]right)/$1yy/I; s/^(\d+[\/\\]left)/$1yy/I" | shed -k -e "s/([\(\)\[\]_])[><]/$1/g" |  shed -k -e "s/([^a-gA-Gn#X-])[<>]/$1/g" | shed -e "s/LO:DY:(a|b|rj)/LO:dy:$1/L" | modori -m |
!!!YEC: Copyright 2022 Narodowy Instytut Fryderyka Chopina (https://polishscores.org)
!!!YEM: License CC-BY-4.0 (https://creativecommons.org/licenses/by/4.0)
